; Generated with MatterSlice 1.0
; filamentDiameter = 1.75
; extrusionWidth = 0.4
; firstLayerExtrusionWidth = 0.4
; layerThickness = 0.2
; firstLayerThickness = 0.25
; automatic settings before start_gcode
G21 ; set units to millimeters
M107 ; fan off
M190 S60 ; wait for bed temperature to be reached
M104 T0 S210 ; start heating extruder 1
T0 ; set the active extruder to 0
; settings from start_gcode
G28 ; home all axes
G1 Z5 F5000 ; lift nozzle
; automatic settings after start_gcode
M109 T0 S210 ; wait for extruder 1 to reach temperature
T0 ; set the active extruder to 0
G90 ; use absolute coordinates
G92 E0 ; reset the expected extruder position
M82 ; use absolute distance for extrusion
; Layer count: 27
; Layer Change GCode
; LAYER:0
M400
M106 S89
G0 F7800 X134.499 Y65.898 Z0.25
; TYPE:SKIRT
G1 F1800 E0
G1 F1080 X139.964 Y68.24 E0.24719
G1 X141.305 Y68.978 E0.31083
G1 X142.691 Y70.093 E0.38479
G1 X143.854 Y71.376 E0.45678
G1 X144.809 Y72.811 E0.52844
G1 X145.545 Y74.388 E0.6008
G1 X146.035 Y76.103 E0.67495
G1 X146.198 Y77.661 E0.74008
G1 X146.2 Y122.309 E2.59633
G1 X146.048 Y123.83 E2.65988
G1 X145.571 Y125.541 E2.73373
G1 X144.846 Y127.12 E2.80596
G1 X143.904 Y128.56 E2.8775
G1 X142.748 Y129.853 E2.94961
G1 X141.363 Y130.983 E3.02393
G1 X139.993 Y131.745 E3.0891
G1 X134.501 Y134.103 E3.33759
G1 X120.238 Y135.2 E3.93233
G1 X79.762 Y135.2 E5.61512
G1 X65.501 Y134.103 E6.20978
G1 X60.035 Y131.76 E6.45703
G1 X58.694 Y131.022 E6.52066
G1 X57.306 Y129.906 E6.59471
G1 X56.143 Y128.621 E6.66676
G1 X55.19 Y127.188 E6.73831
G1 X54.454 Y125.611 E6.81067
G1 X53.963 Y123.892 E6.88499
G1 X53.802 Y122.336 E6.95003
G1 X53.8 Y77.139 E8.8291
G1 X53.981 Y75.591 E8.8939
G1 X54.54 Y73.879 E8.96877
G1 X55.337 Y72.377 E9.03947
G1 X56.321 Y71.053 E9.10805
G1 X57.471 Y69.9 E9.17575
G1 X58.784 Y68.912 E9.24407
G1 X60.054 Y68.233 E9.30394
G1 X65.501 Y65.898 E9.55033
G1 X79.762 Y64.8 E10.14499
G1 X120.238 Y64.8 E11.82779
G1 X134.499 Y65.898 E12.42245
G1 F1800 E11.42245
G0 F7800 X134.499 Y68.2
G0 X133.472 Y70.899
G0 X133 Y72.001
G0 X132.856 Y72.591
G0 X139.398 Y78.017
G0 X138.492 Y124.411
G0 X119.98 Y128.4
G0 X80.02 Y128.4
G0 X80.002 Y128.8
; TYPE:WALL-OUTER
G1 F1800 E12.42245
G1 F1080 X67.05 Y127.804 E12.96252
G1 X62.839 Y125.998 E13.15301
G1 X62.27 Y125.685 E13.18001
G1 X61.71 Y125.235 E13.20988
G1 X61.212 Y124.684 E13.24076
G1 X60.784 Y124.041 E13.27287
G1 X60.467 Y123.362 E13.30403
G1 X60.271 Y122.677 E13.33365
G1 X60.202 Y122 E13.36194
G1 X60.2 Y77.514 E15.21145
G1 X60.264 Y76.968 E15.23431
G1 X60.452 Y76.393 E15.25946
G1 X60.765 Y75.803 E15.28723
G1 X61.18 Y75.244 E15.31617
G1 X61.681 Y74.742 E15.34566
G1 X62.24 Y74.321 E15.37475
G1 X62.822 Y74.01 E15.40219
G1 X67.05 Y72.197 E15.59345
G1 X80.002 Y71.2 E16.13352
G1 X119.998 Y71.2 E17.79636
G1 X132.95 Y72.197 E18.33644
G1 X137.16 Y74.002 E18.52688
G1 X137.728 Y74.314 E18.55382
G1 X138.289 Y74.765 E18.58374
G1 X138.787 Y75.315 E18.61459
G1 X139.215 Y75.958 E18.64671
G1 X139.532 Y76.637 E18.67786
G1 X139.728 Y77.322 E18.70748
G1 X139.798 Y77.995 E18.73561
G1 X139.8 Y121.99 E20.56471
G1 X139.735 Y122.642 E20.59195
G1 X139.542 Y123.335 E20.62186
G1 X139.229 Y124.015 E20.65298
G1 X138.811 Y124.654 E20.68473
G1 X138.312 Y125.213 E20.71588
G1 X137.758 Y125.665 E20.74561
G1 X137.169 Y125.992 E20.77362
G1 X132.95 Y127.804 E20.96452
G1 X119.998 Y128.8 E21.50459
G1 X80.002 Y128.8 E23.16743
G0 F7800 X80.02 Y128.4
; TYPE:WALL-INNER
G1 F1080 X67.144 Y127.41 E23.70433
G1 X63.027 Y125.645 E23.89056
G1 X62.493 Y125.351 E23.9159
G1 X61.987 Y124.944 E23.9429
G1 X61.524 Y124.432 E23.9716
G1 X61.136 Y123.849 E24.00072
G1 X60.844 Y123.222 E24.02947
G1 X60.666 Y122.599 E24.05641
G1 X60.602 Y121.983 E24.08216
G1 X60.6 Y77.536 E25.93005
G1 X60.656 Y77.054 E25.95022
G1 X60.821 Y76.549 E25.97231
G1 X61.101 Y76.021 E25.99716
G1 X61.484 Y75.506 E26.02384
G1 X61.943 Y75.047 E26.05083
G1 X62.458 Y74.659 E26.07764
G1 X63.009 Y74.364 E26.10362
G1 X67.144 Y72.591 E26.29067
G1 X80.02 Y71.6 E26.82758
G1 X119.98 Y71.6 E28.48892
G1 X132.856 Y72.591 E29.02583
G1 X136.972 Y74.355 E29.212
G1 X137.506 Y74.649 E29.23735
G1 X138.012 Y75.056 E29.26434
G1 X138.475 Y75.567 E29.29301
G1 X138.863 Y76.15 E29.32213
G1 X139.155 Y76.777 E29.35088
G1 X139.333 Y77.4 E29.37782
G1 X139.398 Y78.017 E29.40362
G1 X139.4 Y121.97 E31.23097
G1 X139.34 Y122.57 E31.25604
G1 X139.165 Y123.197 E31.2831
G1 X138.88 Y123.817 E31.31147
G1 X138.492 Y124.411 E31.34097
G1 X138.034 Y124.923 E31.36953
G1 X137.531 Y125.334 E31.39654
G1 X136.991 Y125.634 E31.42222
G1 X132.855 Y127.41 E31.60936
G1 X119.98 Y128.4 E32.14622
G1 X80.02 Y128.4 E33.80756
G0 F7800 X66.4 Y123.099
G0 X66 Y122.877
G1 F1080 X66 Y123.499 E33.83342
G1 X79 Y123.499 E34.3739
G1 X79 Y127.92 E34.5577
G1 X67.242 Y127.016 E35.04798
G1 X63.196 Y125.281 E35.23101
G1 X62.716 Y125.017 E35.25379
G1 X62.261 Y124.651 E35.27806
G1 X61.844 Y124.191 E35.30388
G1 X61.484 Y123.649 E35.33093
G1 X61.221 Y123.087 E35.35673
G1 X61.06 Y122.522 E35.38115
G1 X61.002 Y121.961 E35.4046
G1 X61.002 Y121.519 E35.42297
G0 F7800 X61.199 Y121.518
G1 F1080 X61.173 Y121 E35.46297
G1 X61.199 Y120.482 E35.50297
G0 F7800 X61.396 Y120.482
G1 F1080 X61.547 Y119.983 E35.52465
G1 X61.793 Y119.524 E35.5463
G1 X62.122 Y119.122 E35.5679
G1 X62.524 Y118.793 E35.58949
G1 X62.983 Y118.547 E35.61114
G1 X63.483 Y118.395 E35.63287
G1 X64 Y118.345 E35.65447
G1 X64.516 Y118.395 E35.67602
G1 X65.016 Y118.547 E35.69775
G1 X65.475 Y118.793 E35.7194
G1 X65.877 Y119.122 E35.74099
G0 F7800 X65.938 Y119.122
G1 F1080 X66 Y119.272 E35.74774
G0 F7800 X66 Y119.122
G1 F1080 X66 Y103.6 E36.39307
G1 X61.001 Y103.599 E36.60091
G1 X61.002 Y120.483 E37.30286
G0 F7800 X61.396 Y121.518
G1 F1080 X61.547 Y122.016 E37.3245
G1 X61.793 Y122.475 E37.34615
G1 X62.122 Y122.877 E37.36774
G1 X62.524 Y123.206 E37.38934
G1 X62.983 Y123.452 E37.41099
G1 X63.482 Y123.603 E37.43267
G1 X64 Y123.655 E37.45431
G1 X64.518 Y123.603 E37.47596
G1 X65.016 Y123.452 E37.49759
G1 X65.475 Y123.206 E37.51924
G1 X65.877 Y122.877 E37.54084
G0 F7800 X65.938 Y122.877
G1 F1080 X66 Y122.727 E37.54759
G0 F7800 X66.4 Y122.699
G0 X66.8 Y122.699
; TYPE:WALL-OUTER
G1 F1080 X133.2 Y122.699 E40.30818
G1 X133.2 Y106.2 E40.99413
G1 X138.2 Y106.2 E41.202
G1 X138.2 Y93.8 E41.71753
G1 X133.2 Y93.8 E41.92541
G1 X133.2 Y77.3 E42.6114
G1 X66.8 Y77.3 E45.37199
G1 X66.8 Y122.699 E47.25946
G0 F7800 X66.4 Y122.699
G0 X66.4 Y123.099
; TYPE:WALL-INNER
G1 F1080 X133.6 Y123.099 E50.05331
G1 X133.6 Y106.6 E50.73926
G1 X138.6 Y106.6 E50.94714
G1 X138.6 Y93.4 E51.49593
G1 X133.6 Y93.4 E51.70381
G1 X133.6 Y76.9 E52.3898
G1 X66.4 Y76.9 E55.18365
G1 X66.4 Y96.8 E56.01099
G1 X61.4 Y96.799 E56.21887
G1 X61.4 Y103.199 E56.48495
G1 X66.4 Y103.2 E56.69283
G1 X66.4 Y123.099 E57.52013
G0 F7800 X64 Y123.253
G0 X63.961 Y123.249
G0 X64 Y122.851
; TYPE:WALL-OUTER
G1 F1080 X64.36 Y122.815 E57.53517
G1 X64.708 Y122.71 E57.55029
G1 X65.028 Y122.538 E57.56539
G1 X65.308 Y122.308 E57.58045
G1 X65.538 Y122.028 E57.59552
G1 X65.71 Y121.708 E57.61062
G1 X65.815 Y121.36 E57.62574
G1 X65.851 Y121 E57.64078
G1 X65.815 Y120.639 E57.65586
G1 X65.71 Y120.291 E57.67097
G1 X65.538 Y119.971 E57.68608
G1 X65.308 Y119.691 E57.70114
G1 X65.028 Y119.461 E57.71621
G1 X64.708 Y119.289 E57.73131
G1 X64.36 Y119.184 E57.74642
G1 X64 Y119.149 E57.76146
G1 X63.639 Y119.184 E57.77654
G1 X63.291 Y119.289 E57.79165
G1 X62.971 Y119.461 E57.80676
G1 X62.691 Y119.691 E57.82182
G1 X62.461 Y119.971 E57.83689
G1 X62.289 Y120.291 E57.85199
G1 X62.184 Y120.639 E57.8671
G1 X62.148 Y121 E57.88219
G1 X62.184 Y121.36 E57.89723
G1 X62.289 Y121.708 E57.91234
G1 X62.461 Y122.028 E57.92744
G1 X62.691 Y122.308 E57.94251
G1 X62.971 Y122.538 E57.95757
G1 X63.291 Y122.71 E57.97268
G1 X63.639 Y122.815 E57.98779
G1 X64 Y122.851 E58.00287
G0 F7800 X63.961 Y123.249
G0 X64 Y123.253
; TYPE:WALL-INNER
G1 F1080 X64.439 Y123.209 E58.02122
G1 X64.862 Y123.081 E58.03959
G1 X65.251 Y122.872 E58.05795
G1 X65.592 Y122.592 E58.07629
G1 X65.872 Y122.251 E58.09464
G1 X66.081 Y121.862 E58.113
G1 X66.209 Y121.439 E58.13137
G1 X66.253 Y121 E58.14971
G1 X66.209 Y120.56 E58.1681
G1 X66.081 Y120.137 E58.18647
G1 X65.872 Y119.748 E58.20483
G1 X65.592 Y119.407 E58.22317
G1 X65.251 Y119.127 E58.24152
G1 X64.862 Y118.918 E58.25988
G1 X64.438 Y118.79 E58.27829
G1 X64 Y118.747 E58.29659
G1 X63.561 Y118.789 E58.31492
G1 X63.137 Y118.918 E58.33335
G1 X62.748 Y119.127 E58.35171
G1 X62.407 Y119.407 E58.37005
G1 X62.127 Y119.748 E58.3884
G1 X61.918 Y120.137 E58.40676
G1 X61.79 Y120.56 E58.42513
G1 X61.746 Y121 E58.44351
G1 X61.79 Y121.439 E58.46186
G1 X61.918 Y121.862 E58.48023
G1 X62.127 Y122.251 E58.49859
G1 X62.407 Y122.592 E58.51693
G1 X62.748 Y122.872 E58.53528
G1 X63.137 Y123.081 E58.55364
G1 X63.56 Y123.209 E58.57201
G1 X64 Y123.253 E58.5904
G0 F7800 X79.4 Y127.2
G0 X79.8 Y127.2
; TYPE:WALL-OUTER
G1 F1080 X120.2 Y127.2 E60.27003
G1 X120.2 Y123.8 E60.41139
G1 X79.8 Y123.8 E62.09102
G1 X79.8 Y127.2 E62.23238
G0 F7800 X79.4 Y127.2
G0 X79.4 Y127.6
; TYPE:WALL-INNER
G1 F1080 X120.6 Y127.6 E63.94528
G1 X120.6 Y123.4 E64.11989
G1 X79.4 Y123.4 E65.83279
G1 X79.4 Y127.6 E66.00741
G1 F1800 E65.00741
G0 F7800 X66.4 Y123.099
G0 X66.4 Y103.2
G0 X66.699 Y102.8
; TYPE:WALL-OUTER
G1 F1800 E66.00741
G1 F1080 X66.699 Y97.2 E66.24023
G1 X61.8 Y97.199 E66.4439
G1 X61.8 Y102.799 E66.67672
G1 X66.699 Y102.8 E66.8804
G1 F1800 E65.8804
G0 F7800 X66.4 Y103.2
G0 X61.4 Y103.199
G0 X61.4 Y96.799
G0 X64.439 Y81.209
; TYPE:WALL-INNER
G1 F1800 E66.8804
G1 F1080 X64.862 Y81.081 E66.89877
G1 X65.251 Y80.872 E66.91713
G1 X65.592 Y80.592 E66.93548
G1 X65.872 Y80.251 E66.95382
G1 X66.081 Y79.862 E66.97218
G1 X66.209 Y79.439 E66.99056
G1 X66.253 Y79 E67.0089
G1 X66.209 Y78.56 E67.02728
G1 X66.081 Y78.137 E67.04566
G1 X65.872 Y77.748 E67.06402
G1 X65.592 Y77.407 E67.08236
G1 X65.251 Y77.127 E67.1007
G1 X64.862 Y76.918 E67.11906
G1 X64.438 Y76.79 E67.13748
G1 X64 Y76.747 E67.15577
G1 X63.561 Y76.789 E67.17411
G1 X63.137 Y76.918 E67.19253
G1 X62.748 Y77.127 E67.21089
G1 X62.407 Y77.407 E67.22924
G1 X62.127 Y77.748 E67.24758
G1 X61.918 Y78.137 E67.26594
G1 X61.79 Y78.56 E67.28431
G1 X61.746 Y79 E67.3027
G1 X61.79 Y79.439 E67.32104
G1 X61.918 Y79.862 E67.33942
G1 X62.127 Y80.251 E67.35778
G1 X62.407 Y80.592 E67.37612
G1 X62.748 Y80.872 E67.39446
G1 X63.137 Y81.081 E67.41282
G1 X63.56 Y81.209 E67.4312
G1 X64 Y81.253 E67.44958
G1 X64.439 Y81.209 E67.46792
G0 F7800 X65.877 Y80.877
G1 F1080 X65.475 Y81.206 E67.48952
G1 X65.016 Y81.452 E67.51117
G1 X64.518 Y81.603 E67.53281
G1 X64 Y81.655 E67.55445
G1 X63.482 Y81.603 E67.5761
G1 X62.983 Y81.452 E67.59777
G1 X62.524 Y81.206 E67.61942
G1 X62.122 Y80.877 E67.64102
G1 X61.793 Y80.475 E67.66261
G1 X61.547 Y80.016 E67.68427
G1 X61.396 Y79.518 E67.7059
G0 F7800 X61.198 Y79.518
G1 F1080 X61.172 Y79 E67.74595
G1 X61.198 Y78.482 E67.78601
G0 F7800 X61.001 Y78.483
G1 F1080 X61 Y77.556 E67.82455
G1 X61.048 Y77.147 E67.84167
G1 X61.193 Y76.703 E67.86109
G1 X61.443 Y76.231 E67.88329
G1 X61.788 Y75.767 E67.90733
G1 X62.207 Y75.347 E67.932
G1 X62.667 Y75.001 E67.95593
G1 X63.182 Y74.726 E67.9802
G1 X67.242 Y72.985 E68.16386
G1 X79 Y72.08 E68.65415
G1 X79 Y76.5 E68.83791
G1 X66 Y76.5 E69.37839
G1 X66 Y77.122 E69.40425
G0 F7800 X65.938 Y77.122
G1 F1080 X66 Y77.272 E69.41099
G0 F7800 X65.877 Y77.122
G1 F1080 X65.475 Y76.793 E69.43259
G1 X65.016 Y76.547 E69.45424
G1 X64.516 Y76.395 E69.47597
G1 X64 Y76.345 E69.49752
G1 X63.483 Y76.395 E69.51912
G1 X62.983 Y76.547 E69.54084
G1 X62.524 Y76.793 E69.5625
G1 X62.122 Y77.122 E69.58409
G1 X61.793 Y77.524 E69.60569
G1 X61.547 Y77.983 E69.62734
G1 X61.396 Y78.482 E69.64902
G0 F7800 X61.001 Y79.519
G1 F1080 X61.001 Y96.399 E70.3508
G1 X66 Y96.4 E70.55864
G1 X66 Y80.877 E71.20401
G0 F7800 X65.938 Y80.877
G1 F1080 X66 Y80.727 E71.21076
G0 F7800 X64.862 Y81.081
G0 X64.439 Y81.209
G0 X64 Y81.253
G0 X63.961 Y81.249
G0 X64 Y80.851
; TYPE:WALL-OUTER
G1 F1080 X64.36 Y80.815 E71.2258
G1 X64.708 Y80.71 E71.24091
G1 X65.028 Y80.538 E71.25602
G1 X65.308 Y80.308 E71.27108
G1 X65.538 Y80.028 E71.28615
G1 X65.71 Y79.708 E71.30125
G1 X65.815 Y79.36 E71.31636
G1 X65.851 Y79 E71.3314
G1 X65.815 Y78.639 E71.34649
G1 X65.71 Y78.291 E71.3616
G1 X65.538 Y77.971 E71.3767
G1 X65.308 Y77.691 E71.39177
G1 X65.028 Y77.461 E71.40683
G1 X64.708 Y77.289 E71.42194
G1 X64.36 Y77.184 E71.43705
G1 X64 Y77.149 E71.45209
G1 X63.639 Y77.184 E71.46717
G1 X63.291 Y77.289 E71.48228
G1 X62.971 Y77.461 E71.49738
G1 X62.691 Y77.691 E71.51245
G1 X62.461 Y77.971 E71.52751
G1 X62.289 Y78.291 E71.54262
G1 X62.184 Y78.639 E71.55773
G1 X62.148 Y79 E71.57281
G1 X62.184 Y79.36 E71.58785
G1 X62.289 Y79.708 E71.60297
G1 X62.461 Y80.028 E71.61807
G1 X62.691 Y80.308 E71.63314
G1 X62.971 Y80.538 E71.6482
G1 X63.291 Y80.71 E71.6633
G1 X63.639 Y80.815 E71.67842
G1 X64 Y80.851 E71.6935
G0 F7800 X63.961 Y81.249
G0 X64 Y81.253
G0 X64.439 Y81.209
G0 X64.862 Y81.081
G0 X66.4 Y80.515
G0 X66.4 Y76.9
G0 X79.4 Y76.6
; TYPE:WALL-INNER
G1 F1080 X120.6 Y76.6 E73.4064
G1 X120.6 Y72.4 E73.58101
G1 X79.4 Y72.4 E75.29391
G1 X79.4 Y76.6 E75.46853
G0 F7800 X79.4 Y76.2
G0 X79.8 Y76.2
; TYPE:WALL-OUTER
G1 F1080 X120.2 Y76.2 E77.14816
G1 X120.2 Y72.8 E77.28952
G1 X79.8 Y72.8 E78.96915
G1 X79.8 Y76.2 E79.11051
G1 F1800 E78.11051
G0 F7800 X79.4 Y76.2
G0 X79.4 Y76.6
G0 X133.6 Y76.9
G0 X133.747 Y79
; TYPE:WALL-INNER
G1 F1800 E79.11051
G1 F1080 X133.79 Y79.438 E79.12881
G1 X133.918 Y79.862 E79.14722
G1 X134.127 Y80.251 E79.16558
G1 X134.407 Y80.592 E79.18392
G1 X134.748 Y80.872 E79.20227
G1 X135.137 Y81.081 E79.22063
G1 X135.56 Y81.209 E79.239
G1 X136 Y81.253 E79.25739
G1 X136.439 Y81.209 E79.27573
G1 X136.862 Y81.081 E79.2941
G1 X137.251 Y80.872 E79.31246
G1 X137.592 Y80.592 E79.33081
G1 X137.872 Y80.251 E79.34915
G1 X138.081 Y79.862 E79.36751
G1 X138.209 Y79.439 E79.38588
G1 X138.253 Y79 E79.40423
G1 X138.209 Y78.56 E79.42261
G1 X138.081 Y78.137 E79.44098
G1 X137.872 Y77.748 E79.45934
G1 X137.592 Y77.407 E79.47769
G1 X137.251 Y77.127 E79.49603
G1 X136.862 Y76.918 E79.51439
G1 X136.438 Y76.79 E79.5328
G1 X136 Y76.747 E79.5511
G1 X135.561 Y76.789 E79.56944
G1 X135.137 Y76.918 E79.58786
G1 X134.748 Y77.127 E79.60622
G1 X134.407 Y77.407 E79.62457
G1 X134.127 Y77.748 E79.64291
G1 X133.918 Y78.137 E79.66127
G1 X133.789 Y78.561 E79.67969
G1 X133.747 Y79 E79.69803
G0 F7800 X133.79 Y79.438
G0 X133.918 Y79.862
G0 X134.127 Y80.251
G0 X134.407 Y80.592
G0 X134.748 Y80.872
G0 X135.137 Y81.081
G0 X135.56 Y81.209
G0 X135.961 Y81.249
G0 X136 Y80.851
; TYPE:WALL-OUTER
G1 F1080 X136.36 Y80.815 E79.71307
G1 X136.708 Y80.71 E79.72818
G1 X137.028 Y80.538 E79.74329
G1 X137.308 Y80.308 E79.75835
G1 X137.538 Y80.028 E79.77342
G1 X137.71 Y79.708 E79.78852
G1 X137.815 Y79.36 E79.80363
G1 X137.851 Y79 E79.81868
G1 X137.815 Y78.639 E79.83376
G1 X137.71 Y78.291 E79.84887
G1 X137.538 Y77.971 E79.86397
G1 X137.308 Y77.691 E79.87904
G1 X137.028 Y77.461 E79.8941
G1 X136.708 Y77.289 E79.90921
G1 X136.36 Y77.184 E79.92432
G1 X136 Y77.149 E79.93936
G1 X135.639 Y77.184 E79.95444
G1 X135.291 Y77.289 E79.96955
G1 X134.971 Y77.461 E79.98465
G1 X134.691 Y77.691 E79.99972
G1 X134.461 Y77.971 E80.01478
G1 X134.289 Y78.291 E80.02989
G1 X134.184 Y78.639 E80.045
G1 X134.149 Y79 E80.06008
G1 X134.184 Y79.36 E80.07512
G1 X134.289 Y79.708 E80.09023
G1 X134.461 Y80.028 E80.10533
G1 X134.691 Y80.308 E80.1204
G1 X134.971 Y80.538 E80.13546
G1 X135.291 Y80.71 E80.15057
G1 X135.639 Y80.815 E80.16568
G1 X136 Y80.851 E80.18076
G1 F1800 E79.18076
G0 F7800 X135.961 Y81.249
G0 X138.6 Y93.4
G0 X138.6 Y106.6
G0 X136 Y118.747
; TYPE:WALL-INNER
G1 F1800 E80.18076
G1 F1080 X135.561 Y118.789 E80.1991
G1 X135.137 Y118.918 E80.21752
G1 X134.748 Y119.127 E80.23588
G1 X134.407 Y119.407 E80.25423
G1 X134.127 Y119.748 E80.27257
G1 X133.918 Y120.137 E80.29093
G1 X133.789 Y120.561 E80.30936
G1 X133.747 Y121 E80.32769
G1 X133.79 Y121.438 E80.34599
G1 X133.918 Y121.862 E80.3644
G1 X134.127 Y122.251 E80.38276
G1 X134.407 Y122.592 E80.4011
G1 X134.748 Y122.872 E80.41945
G1 X135.137 Y123.081 E80.43781
G1 X135.56 Y123.209 E80.45618
G1 X136 Y123.253 E80.47457
G1 X136.439 Y123.209 E80.49291
G1 X136.862 Y123.081 E80.51128
G1 X137.251 Y122.872 E80.52964
G1 X137.592 Y122.592 E80.54799
G1 X137.872 Y122.251 E80.56633
G1 X138.081 Y121.862 E80.58469
G1 X138.209 Y121.439 E80.60306
G1 X138.253 Y121 E80.62141
G1 X138.209 Y120.56 E80.63979
G1 X138.081 Y120.137 E80.65816
G1 X137.872 Y119.748 E80.67652
G1 X137.592 Y119.407 E80.69487
G1 X137.251 Y119.127 E80.71321
G1 X136.862 Y118.918 E80.73157
G1 X136.438 Y118.79 E80.74998
G1 X136 Y118.747 E80.76828
G0 F7800 X135.561 Y118.789
G0 X134.122 Y119.122
G1 F1080 X134.524 Y118.793 E80.78988
G1 X134.983 Y118.547 E80.81153
G1 X135.483 Y118.395 E80.83326
G1 X136 Y118.345 E80.85485
G1 X136.516 Y118.395 E80.8764
G1 X137.016 Y118.547 E80.89813
G1 X137.475 Y118.793 E80.91978
G1 X137.877 Y119.122 E80.94138
G1 X138.206 Y119.524 E80.96298
G1 X138.452 Y119.983 E80.98463
G1 X138.603 Y120.482 E81.0063
G0 F7800 X138.801 Y120.481
G1 F1080 X138.827 Y120.999 E81.04641
G1 X138.801 Y121.517 E81.08652
G0 F7800 X138.999 Y121.517
G1 F1080 X139 Y121.951 E81.10456
G1 X138.946 Y122.496 E81.12733
G1 X138.79 Y123.056 E81.1515
G1 X138.528 Y123.625 E81.17754
G1 X138.174 Y124.167 E81.20446
G1 X137.757 Y124.633 E81.23045
G1 X137.306 Y125.001 E81.25466
G1 X136.813 Y125.275 E81.2781
G1 X132.758 Y127.016 E81.46157
G1 X121 Y127.92 E81.95186
G1 X121 Y123.499 E82.13566
G1 X134 Y123.499 E82.67614
G1 X134 Y122.877 E82.702
G0 F7800 X134.061 Y122.877
G1 F1080 X134 Y122.728 E82.70869
G0 F7800 X134.122 Y122.877
G1 F1080 X134.524 Y123.206 E82.73029
G1 X134.983 Y123.452 E82.75194
G1 X135.482 Y123.603 E82.77361
G1 X136 Y123.655 E82.79526
G1 X136.518 Y123.603 E82.8169
G1 X137.016 Y123.452 E82.83854
G1 X137.475 Y123.206 E82.86019
G1 X137.877 Y122.877 E82.88179
G1 X138.206 Y122.475 E82.90338
G1 X138.452 Y122.016 E82.92503
G1 X138.603 Y121.518 E82.94667
G0 F7800 X138.999 Y120.481
G1 F1080 X138.999 Y107 E83.50714
G1 X134 Y107 E83.71498
G1 X134 Y119.122 E84.21895
G0 F7800 X134.061 Y119.122
G1 F1080 X134 Y119.271 E84.22565
G0 F7800 X133.789 Y120.561
G0 X133.747 Y121
G0 X133.79 Y121.438
G0 X133.918 Y121.862
G0 X134.127 Y122.251
G0 X134.407 Y122.592
G0 X134.748 Y122.872
G0 X135.137 Y123.081
G0 X135.56 Y123.209
G0 X135.961 Y123.249
G0 X136 Y122.851
; TYPE:WALL-OUTER
G1 F1080 X136.36 Y122.815 E84.24069
G1 X136.708 Y122.71 E84.2558
G1 X137.028 Y122.538 E84.2709
G1 X137.308 Y122.308 E84.28597
G1 X137.538 Y122.028 E84.30103
G1 X137.71 Y121.708 E84.31614
G1 X137.815 Y121.36 E84.33125
G1 X137.851 Y121 E84.34629
G1 X137.815 Y120.639 E84.36138
G1 X137.71 Y120.291 E84.37649
G1 X137.538 Y119.971 E84.39159
G1 X137.308 Y119.691 E84.40666
G1 X137.028 Y119.461 E84.42172
G1 X136.708 Y119.289 E84.43683
G1 X136.36 Y119.184 E84.45194
G1 X136 Y119.149 E84.46698
G1 X135.639 Y119.184 E84.48205
G1 X135.291 Y119.289 E84.49717
G1 X134.971 Y119.461 E84.51227
G1 X134.691 Y119.691 E84.52734
G1 X134.461 Y119.971 E84.5424
G1 X134.289 Y120.291 E84.55751
G1 X134.184 Y120.639 E84.57262
G1 X134.149 Y121 E84.5877
G1 X134.184 Y121.36 E84.60273
G1 X134.289 Y121.708 E84.61785
G1 X134.461 Y122.028 E84.63295
G1 X134.691 Y122.308 E84.64802
G1 X134.971 Y122.538 E84.66308
G1 X135.291 Y122.71 E84.67818
G1 X135.639 Y122.815 E84.6933
G1 X136 Y122.851 E84.70838
G1 F1800 E83.70838
G0 F7800 X135.961 Y123.249
G0 X135.56 Y123.209
G0 X135.137 Y123.081
G0 X134.748 Y122.872
G0 X134.407 Y122.592
G0 X134.127 Y122.251
G0 X133.918 Y121.862
G0 X133.79 Y121.438
G0 X133.747 Y121
G0 X133.789 Y120.561
G0 X135.239 Y106.6
G0 X138.6 Y106.6
G0 X138.6 Y93.4
G0 X134.122 Y80.877
; TYPE:WALL-INNER
G1 F1800 E84.70838
G1 F1080 X134.524 Y81.206 E84.72998
G1 X134.983 Y81.452 E84.75163
G1 X135.482 Y81.603 E84.7733
G1 X136 Y81.655 E84.79495
G1 X136.518 Y81.603 E84.81659
G1 X137.016 Y81.452 E84.83823
G1 X137.475 Y81.206 E84.85988
G1 X137.877 Y80.877 E84.88147
G1 X138.206 Y80.475 E84.90307
G1 X138.452 Y80.016 E84.92472
G1 X138.603 Y79.518 E84.94636
G0 F7800 X138.8 Y79.517
G1 F1080 X138.826 Y78.999 E84.98641
G1 X138.8 Y78.481 E85.02646
G0 F7800 X138.603 Y78.482
G1 F1080 X138.452 Y77.983 E85.04814
G1 X138.206 Y77.524 E85.06979
G1 X137.877 Y77.122 E85.09139
G1 X137.475 Y76.793 E85.11298
G1 X137.016 Y76.547 E85.13464
G1 X136.516 Y76.395 E85.15636
G1 X136 Y76.345 E85.17792
G1 X135.483 Y76.395 E85.19951
G1 X134.983 Y76.547 E85.22124
G1 X134.524 Y76.793 E85.24289
G1 X134.122 Y77.122 E85.26448
G0 F7800 X134.061 Y77.122
G1 F1080 X134 Y77.271 E85.27118
G0 F7800 X134 Y77.122
G1 F1080 X134 Y76.5 E85.29704
G1 X121 Y76.5 E85.83752
G1 X121 Y72.08 E86.02128
G1 X132.758 Y72.985 E86.51156
G1 X136.804 Y74.719 E86.69457
G1 X137.283 Y74.983 E86.71731
G1 X137.735 Y75.346 E86.74142
G1 X138.157 Y75.812 E86.76755
G1 X138.515 Y76.35 E86.79442
G1 X138.778 Y76.912 E86.82022
G1 X138.939 Y77.478 E86.84468
G1 X138.998 Y78.04 E86.86818
G1 X138.998 Y78.481 E86.88651
G0 F7800 X138.998 Y79.517
G1 F1080 X138.999 Y93 E87.44707
G1 X134 Y93 E87.6549
G1 X134 Y80.877 E88.15892
G0 F7800 X134.061 Y80.877
G1 F1080 X134 Y80.728 E88.16561
G0 F7800 X133.79 Y79.438
G0 X133.747 Y79
G0 X133.789 Y78.561
G0 X134.2 Y76.713
; TYPE:FILL
G1 F1080 X134.306 Y76.463 E88.17052
G0 F7800 X136.438 Y76.79
G0 X136.862 Y76.918
G0 X138.593 Y77.486
G1 F1080 X138.69 Y77.712 E88.17576
G1 X138.736 Y77.983 E88.18162
G1 X138.798 Y78.238 E88.18721
G0 F7800 X138.744 Y78.255
G1 F1080 X138.718 Y77.974 E88.19334
G0 F7800 X138.999 Y93.199
G1 F1080 X138.999 Y106.799 E88.75594
G0 F7800 X138.746 Y121.733
G1 F1080 X138.719 Y122.017 E88.76252
G1 X138.647 Y122.219 E88.76747
G1 X138.56 Y122.522 E88.77903
G0 F7800 X138.531 Y122.63
G1 F1080 X138.683 Y122.201 E88.78963
G1 X138.8 Y121.749 E88.80016
G0 F7800 X137.251 Y122.872
G0 X136.862 Y123.081
G0 X136.439 Y123.209
G0 X134.306 Y123.536
G1 F1080 X134.2 Y123.286 E88.80507
G0 F7800 X120.812 Y127.966
G1 F1080 X119.965 Y128 E88.84031
G1 X80.035 Y128 E90.2265
G1 X79.187 Y127.967 E90.25596
G0 F7800 X65.8 Y123.285
G1 F1080 X65.693 Y123.536 E90.26092
G0 F7800 X63.56 Y123.209
G0 X61.469 Y122.632
G1 F1080 X61.379 Y122.419 E90.26755
G1 X61.29 Y122.1 E90.27244
G0 F7800 X61.281 Y122.022
G1 F1080 X61.228 Y121.75 E90.28411
G1 X61.263 Y122.013 E90.28987
G0 F7800 X61.001 Y103.399
G1 F1080 X61 Y96.599 E90.57117
G0 F7800 X61.28 Y77.906
G1 F1080 X61.332 Y77.641 E90.57569
G0 F7800 X63.137 Y76.918
G0 X63.561 Y76.789
G0 X65.693 Y76.463
G1 F1080 X65.8 Y76.713 E90.58063
G0 F7800 X79.186 Y72.033
G1 F1080 X80.035 Y72 E90.61596
G1 X119.965 Y72 E92.00214
G1 X120.812 Y72.033 E92.03156
G0 F7800 X121.339 Y72.69
; TYPE:BOTTOM-FILL
G1 F1080 X124.808 Y76.159 E92.23553
G0 F7800 X124.242 Y76.159
G1 F1080 X121.339 Y73.256 E92.40621
G0 F7800 X121.339 Y73.821
G1 F1080 X123.677 Y76.159 E92.54368
G0 F7800 X123.111 Y76.159
G1 F1080 X121.339 Y74.387 E92.64786
G0 F7800 X121.339 Y74.953
G1 F1080 X122.545 Y76.159 E92.71877
G0 F7800 X121.98 Y76.159
G1 F1080 X121.339 Y75.519 E92.75643
G0 F7800 X121.339 Y76.084
G1 F1080 X121.414 Y76.159 E92.76084
G0 F7800 X121.688 Y72.474
G1 F1080 X125.374 Y76.159 E92.97753
G0 F7800 X125.939 Y76.159
G1 F1080 X122.301 Y72.521 E93.19143
G0 F7800 X122.914 Y72.568
G1 F1080 X126.505 Y76.159 E93.40257
G0 F7800 X127.071 Y76.159
G1 F1080 X123.527 Y72.615 E93.61095
G0 F7800 X124.14 Y72.662
G1 F1080 X127.637 Y76.159 E93.81656
G0 F7800 X128.202 Y76.159
G1 F1080 X124.753 Y72.71 E94.01934
G0 F7800 X125.365 Y72.757
G1 F1080 X128.768 Y76.159 E94.2194
G0 F7800 X129.334 Y76.159
G1 F1080 X125.978 Y72.804 E94.41669
G0 F7800 X126.591 Y72.851
G1 F1080 X129.899 Y76.159 E94.61119
G0 F7800 X130.465 Y76.159
G1 F1080 X127.204 Y72.899 E94.80289
G0 F7800 X127.817 Y72.945
G1 F1080 X131.031 Y76.159 E94.99186
G0 F7800 X131.596 Y76.159
G1 F1080 X128.43 Y72.993 E95.17801
G0 F7800 X129.043 Y73.04
G1 F1080 X132.162 Y76.159 E95.3614
G0 F7800 X132.728 Y76.159
G1 F1080 X129.655 Y73.087 E95.54205
G0 F7800 X130.268 Y73.134
G1 F1080 X133.293 Y76.159 E95.71991
G0 F7800 X133.859 Y76.159
G1 F1080 X130.881 Y73.182 E95.89497
G0 F7800 X131.494 Y73.229
G1 F1080 X134.621 Y76.355 E96.0788
G0 F7800 X135.013 Y76.182
G1 F1080 X132.107 Y73.276 E96.24966
G0 F7800 X132.748 Y73.351
G1 F1080 X135.453 Y76.056 E96.4087
G0 F7800 X135.969 Y76.006
G1 F1080 X133.738 Y73.775 E96.53988
G0 F7800 X134.727 Y74.199
G1 F1080 X136.591 Y76.063 E96.64947
G0 F7800 X136.72 Y75.06
G1 F1080 X138.252 Y76.593 E96.73958
G0 F7800 X137.534 Y76.44
G1 F1080 X135.717 Y74.623 E96.84641
G0 F7800 X137.872 Y77.748
G0 X138.081 Y78.137
G0 X138.209 Y78.56
G0 X138.433 Y80.733
G1 F1080 X138.417 Y81 E96.85956
G1 X138.657 Y81.523 E96.88348
G0 F7800 X138.657 Y82.088
G1 F1080 X137.88 Y81.312 E96.92914
G0 F7800 X137.552 Y81.549
G1 F1080 X138.657 Y82.654 E96.99411
G0 F7800 X138.657 Y83.22
G1 F1080 X137.183 Y81.746 E97.08078
G0 F7800 X136.757 Y81.885
G1 F1080 X138.657 Y83.786 E97.19252
G0 F7800 X138.657 Y84.352
G1 F1080 X136.274 Y81.968 E97.33266
G0 F7800 X135.707 Y81.967
G1 F1080 X138.657 Y84.917 E97.50611
G0 F7800 X138.657 Y85.483
G1 F1080 X134.981 Y81.806 E97.72227
G0 F7800 X134.338 Y81.73
G1 F1080 X138.657 Y86.049 E97.97621
G0 F7800 X138.657 Y86.614
G1 F1080 X134.338 Y82.295 E98.23015
G0 F7800 X134.338 Y82.861
G1 F1080 X138.657 Y87.18 E98.48409
G0 F7800 X138.657 Y87.746
G1 F1080 X134.338 Y83.427 E98.73803
G0 F7800 X134.338 Y83.992
G1 F1080 X138.657 Y88.311 E98.99197
G0 F7800 X138.657 Y88.877
G1 F1080 X134.338 Y84.558 E99.24591
G0 F7800 X134.338 Y85.124
G1 F1080 X138.657 Y89.443 E99.49986
G0 F7800 X138.658 Y90.009
G1 F1080 X134.338 Y85.69 E99.75383
G0 F7800 X134.338 Y86.255
G1 F1080 X138.658 Y90.575 E100.00782
G0 F7800 X138.658 Y91.141
G1 F1080 X134.338 Y86.821 E100.26182
G0 F7800 X134.339 Y87.387
G1 F1080 X138.658 Y91.706 E100.51576
G0 F7800 X138.658 Y92.272
G1 F1080 X134.339 Y87.953 E100.76971
G0 F7800 X134.339 Y88.519
G1 F1080 X138.48 Y92.659 E101.01315
G0 F7800 X137.914 Y92.659
G1 F1080 X134.339 Y89.084 E101.22335
G0 F7800 X134.339 Y89.65
G1 F1080 X137.349 Y92.659 E101.40029
G0 F7800 X136.783 Y92.659
G1 F1080 X134.339 Y90.216 E101.54396
G0 F7800 X134.339 Y90.781
G1 F1080 X136.217 Y92.659 E101.65438
G0 F7800 X135.652 Y92.659
G1 F1080 X134.339 Y91.347 E101.73155
G0 F7800 X134.339 Y91.913
G1 F1080 X135.086 Y92.659 E101.77544
G0 F7800 X134.52 Y92.659
G1 F1080 X134.339 Y92.478 E101.78609
G1 F1800 E100.78609
G0 F7800 X138.6 Y93.4
G0 X138.6 Y106.6
G0 X134.493 Y107.34
G1 F1800 E101.78609
G1 F1080 X138.658 Y111.505 E102.03097
G0 F7800 X138.658 Y110.94
G1 F1080 X135.058 Y107.34 E102.24264
G0 F7800 X135.624 Y107.34
G1 F1080 X138.658 Y110.374 E102.42103
G0 F7800 X138.657 Y109.808
G1 F1080 X136.19 Y107.34 E102.5661
G0 F7800 X136.755 Y107.34
G1 F1080 X138.657 Y109.242 E102.67794
G0 F7800 X138.657 Y108.676
G1 F1080 X137.321 Y107.34 E102.75649
G0 F7800 X137.887 Y107.34
G1 F1080 X138.657 Y108.11 E102.80176
G0 F7800 X138.657 Y107.545
G1 F1080 X138.452 Y107.34 E102.81381
G0 F7800 X134.338 Y107.751
G1 F1080 X138.658 Y112.071 E103.06781
G0 F7800 X138.658 Y112.637
G1 F1080 X134.338 Y108.317 E103.32181
G0 F7800 X134.338 Y108.883
G1 F1080 X138.658 Y113.202 E103.57578
G0 F7800 X138.658 Y113.768
G1 F1080 X134.338 Y109.448 E103.82978
G0 F7800 X134.338 Y110.014
G1 F1080 X138.658 Y114.334 E104.08378
G0 F7800 X138.658 Y114.899
G1 F1080 X134.338 Y110.58 E104.33775
G0 F7800 X134.338 Y111.145
G1 F1080 X138.658 Y115.465 E104.59175
G0 F7800 X138.658 Y116.031
G1 F1080 X134.338 Y111.711 E104.84575
G0 F7800 X134.338 Y112.277
G1 F1080 X138.659 Y116.597 E105.09978
G0 F7800 X138.659 Y117.163
G1 F1080 X134.338 Y112.842 E105.35384
G0 F7800 X134.339 Y113.409
G1 F1080 X138.659 Y117.729 E105.60784
G0 F7800 X138.659 Y118.294
G1 F1080 X134.339 Y113.975 E105.86181
G0 F7800 X134.339 Y114.54
G1 F1080 X138.659 Y118.86 E106.11581
G0 F7800 X138.143 Y118.909
G1 F1080 X138.659 Y119.426 E106.14617
G0 F7800 X138.088 Y118.854
G1 F1080 X134.339 Y115.106 E106.36657
G0 F7800 X134.339 Y115.672
G1 F1080 X136.791 Y118.123 E106.51071
G0 F7800 X136.116 Y118.014
G1 F1080 X134.339 Y116.237 E106.61519
G0 F7800 X134.339 Y116.803
G1 F1080 X135.58 Y118.044 E106.68816
G0 F7800 X135.12 Y118.149
G1 F1080 X134.339 Y117.369 E106.73405
G0 F7800 X134.339 Y117.934
G1 F1080 X134.527 Y118.405 E106.75587
G1 X134.339 Y118.5 E106.76463
G0 F7800 X133.789 Y120.561
G0 X133.747 Y121
G0 X133.79 Y121.438
G0 X134.338 Y123.59
G1 F1080 X136 Y125.252 E106.86235
G0 F7800 X135.605 Y125.423
G1 F1080 X134.021 Y123.839 E106.95548
G0 F7800 X133.455 Y123.839
G1 F1080 X135.209 Y125.592 E107.05858
G0 F7800 X134.813 Y125.762
G1 F1080 X132.89 Y123.839 E107.17164
G0 F7800 X132.324 Y123.839
G1 F1080 X134.417 Y125.932 E107.2947
G0 F7800 X134.022 Y126.102
G1 F1080 X131.758 Y123.839 E107.42779
G0 F7800 X131.193 Y123.839
G1 F1080 X133.626 Y126.272 E107.57084
G0 F7800 X133.23 Y126.442
G1 F1080 X130.627 Y123.839 E107.72389
G0 F7800 X130.061 Y123.839
G1 F1080 X132.834 Y126.612 E107.88693
G0 F7800 X132.361 Y126.705
G1 F1080 X129.496 Y123.839 E108.05541
G0 F7800 X128.93 Y123.839
G1 F1080 X131.836 Y126.745 E108.22627
G0 F7800 X131.311 Y126.785
G1 F1080 X128.364 Y123.839 E108.39951
G0 F7800 X127.798 Y123.838
G1 F1080 X130.785 Y126.825 E108.57514
G0 F7800 X130.26 Y126.866
G1 F1080 X127.232 Y123.838 E108.75317
G0 F7800 X126.666 Y123.838
G1 F1080 X129.735 Y126.906 E108.93359
G0 F7800 X129.21 Y126.947
G1 F1080 X126.101 Y123.838 E109.11639
G0 F7800 X125.535 Y123.838
G1 F1080 X128.684 Y126.987 E109.30153
G0 F7800 X128.159 Y127.028
G1 F1080 X124.969 Y123.838 E109.48909
G0 F7800 X124.404 Y123.838
G1 F1080 X127.634 Y127.068 E109.67901
G0 F7800 X127.108 Y127.108
G1 F1080 X123.838 Y123.838 E109.87127
G0 F7800 X123.272 Y123.838
G1 F1080 X126.583 Y127.149 E110.06594
G0 F7800 X126.058 Y127.189
G1 F1080 X122.707 Y123.838 E110.26297
G0 F7800 X122.141 Y123.838
G1 F1080 X125.532 Y127.229 E110.46235
G0 F7800 X125.007 Y127.27
G1 F1080 X121.575 Y123.838 E110.66414
G0 F7800 X121.339 Y124.167
G1 F1080 X124.481 Y127.31 E110.8489
G0 F7800 X123.957 Y127.351
G1 F1080 X121.339 Y124.733 E111.00283
G0 F7800 X121.339 Y125.299
G1 F1080 X123.431 Y127.391 E111.12583
G0 F7800 X122.906 Y127.431
G1 F1080 X121.339 Y125.865 E111.21794
G0 F7800 X121.339 Y126.43
G1 F1080 X122.381 Y127.472 E111.2792
G0 F7800 X121.855 Y127.512
G1 F1080 X121.339 Y126.996 E111.30954
G0 F7800 X135.181 Y123.867
G1 F1080 X136.396 Y125.082 E111.38098
G0 F7800 X136.782 Y124.902
G1 F1080 X135.861 Y123.981 E111.43513
G0 F7800 X136.4 Y123.955
G1 F1080 X137.141 Y124.696 E111.4787
G0 F7800 X137.453 Y124.442
G1 F1080 X136.864 Y123.853 E111.51333
G0 F7800 X137.274 Y123.698
G1 F1080 X137.855 Y123.996 E111.54014
G1 X137.8 Y123.375 E111.55996
G1 X138.296 Y123.305 E111.57444
G1 X138.241 Y122.967 E111.58868
G1 F1800 E110.58868
G0 F7800 X136.439 Y123.209
G0 X136 Y123.253
G0 X79.4 Y123.4
G0 X78.659 Y123.914
G1 F1800 E111.58868
G1 F1080 X78.583 Y123.838 E111.59314
G0 F7800 X78.017 Y123.838
G1 F1080 X78.659 Y124.48 E111.63089
G0 F7800 X78.659 Y125.046
G1 F1080 X77.452 Y123.838 E111.70189
G0 F7800 X76.886 Y123.838
G1 F1080 X78.659 Y125.611 E111.80613
G0 F7800 X78.659 Y126.177
G1 F1080 X76.32 Y123.838 E111.94366
G0 F7800 X75.755 Y123.838
G1 F1080 X78.659 Y126.743 E112.11443
G0 F7800 X78.659 Y127.308
G1 F1080 X75.189 Y123.838 E112.31845
G0 F7800 X74.623 Y123.838
G1 F1080 X78.31 Y127.525 E112.53524
G0 F7800 X77.697 Y127.477
G1 F1080 X74.058 Y123.838 E112.74919
G0 F7800 X73.492 Y123.838
G1 F1080 X77.085 Y127.431 E112.96045
G0 F7800 X76.472 Y127.383
G1 F1080 X72.926 Y123.838 E113.16891
G0 F7800 X72.361 Y123.838
G1 F1080 X75.859 Y127.336 E113.37458
G0 F7800 X75.246 Y127.289
G1 F1080 X71.795 Y123.838 E113.57749
G0 F7800 X71.229 Y123.838
G1 F1080 X74.633 Y127.242 E113.77763
G0 F7800 X74.02 Y127.195
G1 F1080 X70.664 Y123.838 E113.97498
G0 F7800 X70.098 Y123.838
G1 F1080 X73.408 Y127.148 E114.16959
G0 F7800 X72.795 Y127.101
G1 F1080 X69.532 Y123.838 E114.36144
G0 F7800 X68.966 Y123.838
G1 F1080 X72.182 Y127.053 E114.5505
G0 F7800 X71.569 Y127.006
G1 F1080 X68.401 Y123.838 E114.73677
G0 F7800 X67.835 Y123.838
G1 F1080 X70.956 Y126.959 E114.92027
G0 F7800 X70.343 Y126.912
G1 F1080 X67.269 Y123.838 E115.10101
G0 F7800 X66.704 Y123.838
G1 F1080 X69.731 Y126.865 E115.27899
G0 F7800 X69.118 Y126.818
G1 F1080 X66.138 Y123.838 E115.4542
G0 F7800 X65.377 Y123.643
G1 F1080 X68.505 Y126.77 E115.63809
G0 F7800 X67.892 Y126.724
G1 F1080 X64.984 Y123.815 E115.80909
G0 F7800 X64.543 Y123.94
G1 F1080 X67.252 Y126.649 E115.96837
G0 F7800 X66.262 Y126.224
G1 F1080 X64.029 Y123.992 E116.09964
G0 F7800 X63.406 Y123.935
G1 F1080 X65.271 Y125.799 E116.20926
G0 F7800 X64.28 Y125.374
G1 F1080 X62.463 Y123.557 E116.31609
G0 F7800 X61.745 Y123.405
G1 F1080 X63.277 Y124.937 E116.40617
G0 F7800 X61.918 Y121.862
G0 X61.79 Y121.439
G0 X61.564 Y119.264
G1 F1080 X61.58 Y118.997 E116.41926
G1 X61.341 Y118.475 E116.44313
G0 F7800 X61.341 Y117.91
G1 F1080 X62.117 Y118.685 E116.48873
G0 F7800 X62.446 Y118.448
G1 F1080 X61.341 Y117.344 E116.55367
G0 F7800 X61.341 Y116.778
G1 F1080 X62.814 Y118.251 E116.64028
G0 F7800 X63.24 Y118.112
G1 F1080 X61.341 Y116.212 E116.75196
G0 F7800 X61.341 Y115.647
G1 F1080 X63.724 Y118.03 E116.89207
G0 F7800 X64.291 Y118.031
G1 F1080 X61.341 Y115.081 E117.06552
G0 F7800 X61.341 Y114.515
G1 F1080 X65.017 Y118.191 E117.28165
G0 F7800 X65.66 Y118.269
G1 F1080 X61.341 Y113.95 E117.53559
G0 F7800 X61.341 Y113.384
G1 F1080 X65.66 Y117.703 E117.78954
G0 F7800 X65.66 Y117.137
G1 F1080 X61.341 Y112.818 E118.04348
G0 F7800 X61.341 Y112.253
G1 F1080 X65.66 Y116.572 E118.29742
G0 F7800 X65.66 Y116.006
G1 F1080 X61.34 Y111.686 E118.55142
G0 F7800 X61.34 Y111.121
G1 F1080 X65.66 Y115.44 E118.80539
G0 F7800 X65.66 Y114.875
G1 F1080 X61.34 Y110.555 E119.05939
G0 F7800 X61.34 Y109.989
G1 F1080 X65.66 Y114.309 E119.31339
G0 F7800 X65.66 Y113.743
G1 F1080 X61.34 Y109.424 E119.56736
G0 F7800 X61.34 Y108.858
G1 F1080 X65.66 Y113.178 E119.82135
G0 F7800 X65.66 Y112.612
G1 F1080 X61.34 Y108.292 E120.07535
G0 F7800 X61.34 Y107.727
G1 F1080 X65.66 Y112.046 E120.32932
G0 F7800 X65.66 Y111.481
G1 F1080 X61.34 Y107.161 E120.58332
G0 F7800 X61.34 Y106.595
G1 F1080 X65.659 Y110.914 E120.83726
G0 F7800 X65.659 Y110.348
G1 F1080 X61.34 Y106.029 E121.0912
G0 F7800 X61.34 Y105.464
G1 F1080 X65.659 Y109.783 E121.34515
G0 F7800 X65.659 Y109.217
G1 F1080 X61.34 Y104.898 E121.59909
G0 F7800 X61.34 Y104.332
G1 F1080 X65.659 Y108.651 E121.85303
G0 F7800 X65.659 Y108.086
G1 F1080 X61.511 Y103.938 E122.09691
G0 F7800 X62.077 Y103.938
G1 F1080 X65.659 Y107.52 E122.30752
G0 F7800 X65.659 Y106.954
G1 F1080 X62.644 Y103.939 E122.48479
G0 F7800 X63.209 Y103.939
G1 F1080 X65.659 Y106.389 E122.62884
G0 F7800 X65.659 Y105.823
G1 F1080 X63.775 Y103.939 E122.73961
G0 F7800 X64.341 Y103.939
G1 F1080 X65.659 Y105.257 E122.81711
G0 F7800 X65.659 Y104.692
G1 F1080 X64.907 Y103.939 E122.86135
G0 F7800 X65.473 Y103.939
G1 F1080 X65.659 Y104.126 E122.87232
G0 F7800 X61.4 Y103.199
G0 X61.4 Y96.799
G0 X65.512 Y96.059
G1 F1080 X61.34 Y91.887 E123.11761
G0 F7800 X61.34 Y91.322
G1 F1080 X65.659 Y95.641 E123.37156
G0 F7800 X65.659 Y95.075
G1 F1080 X61.34 Y90.756 E123.6255
G0 F7800 X61.34 Y90.19
G1 F1080 X65.659 Y94.509 E123.87944
G0 F7800 X65.659 Y93.944
G1 F1080 X61.34 Y89.625 E124.13338
G0 F7800 X61.34 Y89.059
G1 F1080 X65.659 Y93.378 E124.38732
G0 F7800 X65.659 Y92.812
G1 F1080 X61.34 Y88.493 E124.64126
G0 F7800 X61.34 Y87.927
G1 F1080 X65.659 Y92.247 E124.89523
G0 F7800 X65.659 Y91.681
G1 F1080 X61.34 Y87.361 E125.1492
G0 F7800 X61.34 Y86.795
G1 F1080 X65.659 Y91.115 E125.40317
G0 F7800 X65.659 Y90.549
G1 F1080 X61.34 Y86.23 E125.65711
G0 F7800 X61.34 Y85.664
G1 F1080 X65.659 Y89.984 E125.91108
G0 F7800 X65.659 Y89.418
G1 F1080 X61.34 Y85.098 E126.16505
G0 F7800 X61.34 Y84.533
G1 F1080 X65.659 Y88.852 E126.41899
G0 F7800 X65.659 Y88.287
G1 F1080 X61.34 Y83.967 E126.67296
G0 F7800 X61.34 Y83.401
G1 F1080 X65.659 Y87.721 E126.92693
G0 F7800 X65.659 Y87.155
G1 F1080 X61.34 Y82.836 E127.18087
G0 F7800 X61.34 Y82.27
G1 F1080 X65.659 Y86.59 E127.43484
G0 F7800 X65.659 Y86.024
G1 F1080 X61.34 Y81.704 E127.68881
G0 F7800 X61.34 Y81.139
G1 F1080 X65.659 Y85.458 E127.94275
G0 F7800 X65.659 Y84.893
G1 F1080 X61.91 Y81.143 E128.16321
G0 F7800 X61.854 Y81.088
G1 F1080 X61.34 Y80.573 E128.19346
G0 F7800 X63.206 Y81.874
G1 F1080 X65.659 Y84.327 E128.33769
G0 F7800 X65.659 Y83.761
G1 F1080 X63.881 Y81.983 E128.44223
G0 F7800 X64.417 Y81.953
G1 F1080 X65.659 Y83.196 E128.51528
G0 F7800 X65.659 Y82.63
G1 F1080 X64.877 Y81.848 E128.56126
G0 F7800 X65.287 Y81.692
G1 F1080 X65.659 Y81.781 E128.58312
G1 X65.654 Y81.494 E128.59506
G0 F7800 X66.209 Y79.439
G0 X66.253 Y79
G0 X66.209 Y78.56
G0 X65.659 Y76.407
G1 F1080 X63.998 Y74.746 E128.69272
G0 F7800 X63.602 Y74.915
G1 F1080 X64.816 Y76.13 E128.76413
G0 F7800 X64.137 Y76.016
G1 F1080 X63.214 Y75.094 E128.81837
G0 F7800 X62.846 Y75.291
G1 F1080 X63.597 Y76.042 E128.86252
G0 F7800 X63.134 Y76.144
G1 F1080 X62.523 Y75.534 E128.89842
G0 F7800 X62.229 Y75.806
G1 F1080 X62.538 Y76.397 E128.92739
G1 X61.841 Y76.266 E128.95046
G1 X61.898 Y76.889 E128.96919
G1 X61.453 Y77.009 E128.9827
G1 X61.504 Y77.343 E128.99675
G0 F7800 X64.394 Y74.576
G1 F1080 X65.976 Y76.158 E129.08976
G0 F7800 X66.542 Y76.158
G1 F1080 X64.79 Y74.406 E129.19277
G0 F7800 X65.186 Y74.237
G1 F1080 X67.107 Y76.158 E129.30572
G0 F7800 X67.673 Y76.158
G1 F1080 X65.582 Y74.067 E129.42866
G0 F7800 X65.978 Y73.897
G1 F1080 X68.239 Y76.158 E129.5616
G0 F7800 X68.805 Y76.158
G1 F1080 X66.373 Y73.727 E129.70456
G0 F7800 X66.769 Y73.558
G1 F1080 X69.371 Y76.159 E129.85752
G0 F7800 X69.937 Y76.159
G1 F1080 X67.165 Y73.388 E130.02048
G0 F7800 X67.639 Y73.295
G1 F1080 X70.502 Y76.159 E130.18884
G0 F7800 X71.068 Y76.159
G1 F1080 X68.164 Y73.255 E130.35958
G0 F7800 X68.689 Y73.214
G1 F1080 X71.634 Y76.159 E130.53274
G0 F7800 X72.199 Y76.159
G1 F1080 X69.214 Y73.174 E130.70824
G0 F7800 X69.739 Y73.133
G1 F1080 X72.765 Y76.159 E130.88616
G0 F7800 X73.331 Y76.159
G1 F1080 X70.265 Y73.093 E131.06643
G0 F7800 X70.789 Y73.052
G1 F1080 X73.896 Y76.159 E131.24911
G0 F7800 X74.462 Y76.159
G1 F1080 X71.315 Y73.012 E131.43414
G0 F7800 X71.84 Y72.972
G1 F1080 X75.028 Y76.159 E131.62155
G0 F7800 X75.594 Y76.16
G1 F1080 X72.366 Y72.931 E131.81138
G0 F7800 X72.891 Y72.891
G1 F1080 X76.16 Y76.16 E132.00358
G0 F7800 X76.726 Y76.16
G1 F1080 X73.416 Y72.85 E132.1982
G0 F7800 X73.941 Y72.81
G1 F1080 X77.291 Y76.16 E132.39516
G0 F7800 X77.857 Y76.16
G1 F1080 X74.466 Y72.769 E132.59454
G0 F7800 X74.992 Y72.729
G1 F1080 X78.423 Y76.16 E132.79627
G0 F7800 X78.659 Y75.83
G1 F1080 X75.516 Y72.688 E132.98104
G0 F7800 X76.042 Y72.648
G1 F1080 X78.659 Y75.265 E133.13491
G0 F7800 X78.659 Y74.699
G1 F1080 X76.567 Y72.607 E133.25791
G0 F7800 X77.093 Y72.567
G1 F1080 X78.659 Y74.133 E133.34999
G0 F7800 X78.659 Y73.568
G1 F1080 X77.617 Y72.526 E133.41125
G0 F7800 X78.143 Y72.486
G1 F1080 X78.659 Y73.002 E133.44159
G1 F1800 E132.44159
G0 F7800 X66.4 Y76.9
G0 X66.4 Y86.77
G0 X61.34 Y92.453
G1 F1800 E133.44159
G1 F1080 X64.947 Y96.059 E133.65364
G0 F7800 X64.38 Y96.059
G1 F1080 X61.34 Y93.019 E133.83238
G0 F7800 X61.34 Y93.584
G1 F1080 X63.814 Y96.059 E133.97787
G0 F7800 X63.249 Y96.059
G1 F1080 X61.34 Y94.15 E134.09011
G0 F7800 X61.34 Y94.716
G1 F1080 X62.683 Y96.059 E134.16907
G0 F7800 X62.117 Y96.058
G1 F1080 X61.34 Y95.281 E134.21476
G0 F7800 X61.34 Y95.847
G1 F1080 X61.551 Y96.058 E134.22717
G1 F1800 E133.22717
G0 F7800 X66.4 Y96.8
G0 X66.499 Y97.4
G0 X65.299 Y98.6
G0 X81.2 Y74.8
G0 X118.8 Y74.8
G0 X131.8 Y78.7
G0 X68.2 Y78.7
G0 X73.88 Y92.25
G0 X75.08 Y92.25
G0 X75.28 Y92.05
; TYPE:WALL-OUTER
G1 F1800 E134.22717
G1 F1080 X75.28 Y87.95 E134.39762
G1 X85.378 Y87.95 E134.81745
G1 X85.634 Y88.605 E134.84669
G1 X85.634 Y91.281 E134.95794
G1 X85.25 Y92.05 E134.99368
G1 X75.28 Y92.05 E135.40818
G0 F7800 X75.68 Y91.65
; TYPE:WALL-INNER
G1 F1080 X75.68 Y88.35 E135.54538
G1 X85.104 Y88.35 E135.93718
G1 X85.234 Y88.682 E135.95201
G1 X85.234 Y91.186 E136.05611
G1 X85.002 Y91.65 E136.07768
G1 X75.68 Y91.65 E136.46524
G0 F7800 X76.08 Y91.25
G1 F1080 X76.08 Y88.75 E136.56918
G1 X84.832 Y88.75 E136.93305
G1 X84.834 Y91.093 E137.03046
G1 X84.756 Y91.25 E137.03775
G1 X76.08 Y91.25 E137.39845
G0 F7800 X76.767 Y90.909
; TYPE:BOTTOM-FILL
G1 F1080 X76.42 Y90.562 E137.41886
G0 F7800 X76.419 Y89.996
G1 F1080 X77.332 Y90.909 E137.47254
G0 F7800 X77.898 Y90.909
G1 F1080 X76.419 Y89.43 E137.5595
G0 F7800 X76.644 Y89.089
G1 F1080 X78.464 Y90.909 E137.6665
G0 F7800 X79.029 Y90.909
G1 F1080 X77.21 Y89.089 E137.77348
G0 F7800 X77.776 Y89.089
G1 F1080 X79.595 Y90.909 E137.88046
G0 F7800 X80.161 Y90.909
G1 F1080 X78.341 Y89.089 E137.98747
G0 F7800 X78.907 Y89.089
G1 F1080 X80.726 Y90.909 E138.09445
G0 F7800 X81.292 Y90.909
G1 F1080 X79.473 Y89.089 E138.20143
G0 F7800 X80.038 Y89.089
G1 F1080 X81.858 Y90.909 E138.30844
G0 F7800 X82.423 Y90.909
G1 F1080 X80.604 Y89.089 E138.41542
G0 F7800 X81.17 Y89.089
G1 F1080 X82.989 Y90.909 E138.5224
G0 F7800 X83.555 Y90.909
G1 F1080 X81.735 Y89.089 E138.62941
G0 F7800 X82.301 Y89.089
G1 F1080 X84.12 Y90.909 E138.73639
G0 F7800 X84.494 Y90.716
G1 F1080 X82.867 Y89.089 E138.83205
G0 F7800 X83.432 Y89.089
G1 F1080 X84.493 Y90.15 E138.89443
G0 F7800 X84.492 Y89.584
G1 F1080 X83.998 Y89.089 E138.92351
G1 F1800 E137.92351
G0 F7800 X85.002 Y91.65
G0 X85.373 Y92.25
G0 X85.373 Y93.45
G0 X86.631 Y106.231
G0 X85.514 Y106.668
G0 X85.104 Y107.268
G0 X75.68 Y110.568
G0 X75.28 Y110.968
; TYPE:WALL-OUTER
G1 F1800 E138.92351
G1 F1080 X75.28 Y106.868 E139.09397
G1 X85.378 Y106.868 E139.51379
G1 X85.634 Y107.523 E139.54303
G1 X85.634 Y110.199 E139.65429
G1 X85.249 Y110.968 E139.69004
G1 X75.28 Y110.968 E140.1045
G0 F7800 X75.68 Y110.568
; TYPE:WALL-INNER
G1 F1080 X75.68 Y107.268 E140.2417
G1 X85.104 Y107.268 E140.6335
G1 X85.234 Y107.6 E140.64833
G1 X85.234 Y110.104 E140.75243
G1 X85.002 Y110.568 E140.774
G1 X75.68 Y110.568 E141.16156
G0 F7800 X76.08 Y110.168
G1 F1080 X76.08 Y107.668 E141.2655
G1 X84.832 Y107.668 E141.62937
G1 X84.834 Y110.011 E141.72678
G1 X84.755 Y110.168 E141.73409
G1 X76.08 Y110.168 E142.09475
G0 F7800 X76.419 Y109.795
; TYPE:BOTTOM-FILL
G1 F1080 X76.452 Y109.827 E142.09666
G0 F7800 X77.018 Y109.827
G1 F1080 X76.419 Y109.229 E142.13185
G0 F7800 X76.419 Y108.663
G1 F1080 X77.583 Y109.827 E142.20029
G0 F7800 X78.149 Y109.827
G1 F1080 X76.419 Y108.098 E142.30198
G0 F7800 X76.895 Y108.007
G1 F1080 X78.715 Y109.827 E142.40899
G0 F7800 X79.28 Y109.827
G1 F1080 X77.46 Y108.007 E142.516
G0 F7800 X78.026 Y108.007
G1 F1080 X79.846 Y109.827 E142.623
G0 F7800 X80.412 Y109.827
G1 F1080 X78.592 Y108.007 E142.73001
G0 F7800 X79.157 Y108.007
G1 F1080 X80.977 Y109.827 E142.83702
G0 F7800 X81.542 Y109.827
G1 F1080 X79.723 Y108.007 E142.944
G0 F7800 X80.289 Y108.007
G1 F1080 X82.108 Y109.827 E143.05098
G0 F7800 X82.674 Y109.827
G1 F1080 X80.854 Y108.007 E143.15799
G0 F7800 X81.42 Y108.007
G1 F1080 X83.239 Y109.827 E143.26497
G0 F7800 X83.805 Y109.827
G1 F1080 X81.986 Y108.007 E143.37195
G0 F7800 X82.551 Y108.007
G1 F1080 X84.371 Y109.827 E143.47896
G0 F7800 X84.493 Y109.383
G1 F1080 X83.117 Y108.007 E143.55986
G0 F7800 X83.683 Y108.007
G1 F1080 X84.492 Y108.817 E143.60746
G0 F7800 X84.492 Y108.25
G1 F1080 X84.248 Y108.007 E143.62178
G1 F1800 E142.62178
G0 F7800 X85.234 Y107.6
G0 X85.834 Y107.486
G0 X87.034 Y107.486
G0 X93.249 Y106.668
G0 X94.449 Y106.668
G0 X95.049 Y107.268
G0 X95.049 Y110.568
G0 X94.649 Y110.968
; TYPE:WALL-OUTER
G1 F1800 E143.62178
G1 F1080 X94.649 Y106.868 E143.79223
G1 X104.746 Y106.868 E144.21202
G1 X105.003 Y107.523 E144.24127
G1 X105.003 Y110.199 E144.35253
G1 X104.618 Y110.968 E144.38828
G1 X94.649 Y110.968 E144.80274
G0 F7800 X95.049 Y110.568
; TYPE:WALL-INNER
G1 F1080 X95.049 Y107.268 E144.93994
G1 X104.473 Y107.268 E145.33175
G1 X104.603 Y107.601 E145.34661
G1 X104.603 Y110.104 E145.45067
G1 X104.371 Y110.568 E145.47224
G1 X95.049 Y110.568 E145.8598
G0 F7800 X95.449 Y110.168
G1 F1080 X95.449 Y107.668 E145.96374
G1 X104.2 Y107.668 E146.32756
G1 X104.203 Y110.011 E146.42497
G1 X104.124 Y110.168 E146.43228
G1 X95.449 Y110.168 E146.79295
G0 F7800 X96.251 Y109.827
; TYPE:BOTTOM-FILL
G1 F1080 X95.788 Y109.365 E146.82014
G0 F7800 X95.788 Y108.799
G1 F1080 X96.817 Y109.827 E146.88061
G0 F7800 X97.382 Y109.827
G1 F1080 X95.788 Y108.234 E146.9743
G0 F7800 X96.128 Y108.007
G1 F1080 X97.948 Y109.827 E147.08131
G0 F7800 X98.514 Y109.827
G1 F1080 X96.694 Y108.007 E147.18832
G0 F7800 X97.259 Y108.007
G1 F1080 X99.079 Y109.827 E147.29533
G0 F7800 X99.645 Y109.827
G1 F1080 X97.825 Y108.007 E147.40234
G0 F7800 X98.391 Y108.007
G1 F1080 X100.21 Y109.827 E147.50932
G0 F7800 X100.776 Y109.827
G1 F1080 X98.956 Y108.007 E147.61633
G0 F7800 X99.522 Y108.007
G1 F1080 X101.341 Y109.827 E147.72331
G0 F7800 X101.907 Y109.827
G1 F1080 X100.088 Y108.007 E147.83029
G0 F7800 X100.653 Y108.007
G1 F1080 X102.473 Y109.827 E147.9373
G0 F7800 X103.038 Y109.827
G1 F1080 X101.219 Y108.007 E148.04428
G0 F7800 X101.785 Y108.007
G1 F1080 X103.604 Y109.827 E148.15126
G0 F7800 X103.862 Y109.519
G1 F1080 X102.35 Y108.007 E148.24016
G0 F7800 X102.916 Y108.007
G1 F1080 X103.862 Y108.953 E148.29578
G0 F7800 X103.861 Y108.387
G1 F1080 X103.482 Y108.007 E148.31809
G1 F1800 E147.31809
G0 F7800 X104.473 Y107.268
G0 X104.882 Y106.668
G0 X105.998 Y106.23
G0 X104.742 Y93.45
G0 X104.742 Y92.25
G0 X104.371 Y91.65
G0 X95.049 Y91.65
G0 X94.649 Y92.05
; TYPE:WALL-OUTER
G1 F1800 E148.31809
G1 F1080 X94.649 Y87.95 E148.48855
G1 X104.746 Y87.95 E148.90833
G1 X105.003 Y88.605 E148.93759
G1 X105.003 Y91.281 E149.04884
G1 X104.619 Y92.05 E149.08458
G1 X94.649 Y92.05 E149.49908
G0 F7800 X95.049 Y91.65
; TYPE:WALL-INNER
G1 F1080 X95.049 Y88.35 E149.63628
G1 X104.473 Y88.35 E150.02808
G1 X104.603 Y88.683 E150.04295
G1 X104.603 Y91.186 E150.14701
G1 X104.371 Y91.65 E150.16858
G1 X95.049 Y91.65 E150.55614
G0 F7800 X95.449 Y91.25
G1 F1080 X95.449 Y88.75 E150.66008
G1 X104.2 Y88.75 E151.0239
G1 X104.203 Y91.093 E151.12131
G1 X104.125 Y91.25 E151.1286
G1 X95.449 Y91.25 E151.48931
G0 F7800 X96.001 Y90.91
; TYPE:BOTTOM-FILL
G1 F1080 X95.788 Y90.697 E151.50183
G0 F7800 X95.788 Y90.131
G1 F1080 X96.567 Y90.91 E151.54763
G0 F7800 X97.133 Y90.91
G1 F1080 X95.788 Y89.565 E151.62671
G0 F7800 X95.878 Y89.09
G1 F1080 X97.698 Y90.91 E151.73372
G0 F7800 X98.264 Y90.91
G1 F1080 X96.444 Y89.09 E151.84073
G0 F7800 X97.01 Y89.09
G1 F1080 X98.83 Y90.91 E151.94774
G0 F7800 X99.395 Y90.91
G1 F1080 X97.575 Y89.09 E152.05475
G0 F7800 X98.141 Y89.09
G1 F1080 X99.96 Y90.909 E152.1617
G0 F7800 X100.526 Y90.909
G1 F1080 X98.707 Y89.09 E152.26865
G0 F7800 X99.272 Y89.09
G1 F1080 X101.092 Y90.909 E152.37563
G0 F7800 X101.657 Y90.909
G1 F1080 X99.837 Y89.089 E152.48264
G0 F7800 X100.403 Y89.089
G1 F1080 X102.223 Y90.909 E152.58965
G0 F7800 X102.789 Y90.909
G1 F1080 X100.969 Y89.089 E152.69666
G0 F7800 X101.534 Y89.089
G1 F1080 X103.354 Y90.909 E152.80367
G0 F7800 X103.862 Y90.851
G1 F1080 X102.1 Y89.089 E152.90726
G0 F7800 X102.666 Y89.089
G1 F1080 X103.861 Y90.285 E152.97756
G0 F7800 X103.86 Y89.718
G1 F1080 X103.231 Y89.089 E153.01454
G0 F7800 X103.797 Y89.089
G1 F1080 X103.859 Y89.152 E153.01821
G1 F1800 E152.01821
G0 F7800 X104.603 Y88.683
G0 X105.203 Y88.568
G0 X106.319 Y88.13
G0 X113.8 Y87.75
G0 X115 Y87.75
G0 X115.6 Y88.35
G0 X115.6 Y91.65
G0 X115.2 Y92.05
; TYPE:WALL-OUTER
G1 F1800 E153.01821
G1 F1080 X115.2 Y87.95 E153.18867
G1 X125.297 Y87.95 E153.60846
G1 X125.553 Y88.605 E153.63769
G1 X125.553 Y91.281 E153.74895
G1 X125.169 Y92.05 E153.78468
G1 X115.2 Y92.05 E154.19915
G0 F7800 X115.6 Y91.65
; TYPE:WALL-INNER
G1 F1080 X115.6 Y88.35 E154.33635
G1 X125.023 Y88.35 E154.72811
G1 X125.153 Y88.682 E154.74293
G1 X125.153 Y91.186 E154.84704
G1 X124.922 Y91.65 E154.86859
G1 X115.6 Y91.65 E155.25615
G0 F7800 X116 Y91.25
G1 F1080 X116 Y88.75 E155.36009
G1 X124.751 Y88.75 E155.72391
G1 X124.753 Y91.092 E155.82128
G1 X124.674 Y91.25 E155.82862
G1 X116 Y91.25 E156.18925
G0 F7800 X116.338 Y90.883
; TYPE:BOTTOM-FILL
G1 F1080 X116.365 Y90.909 E156.19081
G0 F7800 X116.931 Y90.909
G1 F1080 X116.338 Y90.317 E156.22564
G0 F7800 X116.338 Y89.751
G1 F1080 X117.497 Y90.909 E156.29376
G0 F7800 X118.062 Y90.909
G1 F1080 X116.338 Y89.185 E156.39512
G0 F7800 X116.808 Y89.089
G1 F1080 X118.628 Y90.909 E156.50213
G0 F7800 X119.194 Y90.909
G1 F1080 X117.374 Y89.089 E156.60914
G0 F7800 X117.939 Y89.089
G1 F1080 X119.759 Y90.909 E156.71615
G0 F7800 X120.325 Y90.909
G1 F1080 X118.505 Y89.089 E156.82316
G0 F7800 X119.071 Y89.089
G1 F1080 X120.891 Y90.909 E156.93017
G0 F7800 X121.456 Y90.909
G1 F1080 X119.636 Y89.089 E157.03718
G0 F7800 X120.202 Y89.089
G1 F1080 X122.022 Y90.909 E157.14419
G0 F7800 X122.588 Y90.909
G1 F1080 X120.768 Y89.09 E157.25117
G0 F7800 X121.334 Y89.09
G1 F1080 X123.153 Y90.909 E157.35812
G0 F7800 X123.719 Y90.909
G1 F1080 X121.9 Y89.09 E157.46507
G0 F7800 X122.465 Y89.09
G1 F1080 X124.285 Y90.909 E157.57205
G0 F7800 X124.411 Y90.47
G1 F1080 X123.031 Y89.09 E157.65318
G0 F7800 X123.597 Y89.09
G1 F1080 X124.411 Y89.904 E157.70104
G0 F7800 X124.41 Y89.337
G1 F1080 X124.163 Y89.09 E157.71557
G1 F1800 E156.71557
G0 F7800 X124.922 Y91.65
G0 X125.293 Y92.25
G0 X125.293 Y93.45
G0 X126.55 Y106.231
G0 X125.433 Y106.668
G0 X125.023 Y107.268
G0 X115.6 Y110.568
G0 X115.2 Y110.968
; TYPE:WALL-OUTER
G1 F1800 E157.71557
G1 F1080 X115.2 Y106.868 E157.88603
G1 X125.297 Y106.868 E158.30581
G1 X125.553 Y107.523 E158.33505
G1 X125.553 Y110.2 E158.44634
G1 X125.169 Y110.968 E158.48204
G1 X115.2 Y110.968 E158.89651
G0 F7800 X115.6 Y110.568
; TYPE:WALL-INNER
G1 F1080 X115.6 Y107.268 E159.0337
G1 X125.023 Y107.268 E159.42547
G1 X125.153 Y107.6 E159.44029
G1 X125.153 Y110.105 E159.54444
G1 X124.922 Y110.568 E159.56595
G1 X115.6 Y110.568 E159.95351
G0 F7800 X116 Y110.168
G1 F1080 X116 Y107.668 E160.05745
G1 X124.751 Y107.668 E160.42127
G1 X124.753 Y110.01 E160.51864
G1 X124.674 Y110.168 E160.52599
G1 X116 Y110.168 E160.88661
G0 F7800 X116.616 Y109.827
; TYPE:BOTTOM-FILL
G1 F1080 X116.338 Y109.55 E160.90293
G0 F7800 X116.338 Y108.984
G1 F1080 X117.181 Y109.827 E160.95249
G0 F7800 X117.747 Y109.827
G1 F1080 X116.338 Y108.419 E161.03531
G0 F7800 X116.493 Y108.007
G1 F1080 X118.313 Y109.827 E161.14231
G0 F7800 X118.878 Y109.827
G1 F1080 X117.058 Y108.007 E161.24932
G0 F7800 X117.624 Y108.007
G1 F1080 X119.444 Y109.827 E161.35633
G0 F7800 X120.01 Y109.827
G1 F1080 X118.19 Y108.007 E161.46334
G0 F7800 X118.755 Y108.007
G1 F1080 X120.575 Y109.827 E161.57035
G0 F7800 X121.141 Y109.827
G1 F1080 X119.321 Y108.007 E161.67736
G0 F7800 X119.887 Y108.007
G1 F1080 X121.707 Y109.827 E161.78437
G0 F7800 X122.272 Y109.827
G1 F1080 X120.453 Y108.008 E161.89132
G0 F7800 X121.019 Y108.008
G1 F1080 X122.838 Y109.827 E161.99827
G0 F7800 X123.404 Y109.827
G1 F1080 X121.584 Y108.008 E162.10525
G0 F7800 X122.15 Y108.008
G1 F1080 X123.969 Y109.827 E162.2122
G0 F7800 X124.412 Y109.704
G1 F1080 X122.716 Y108.008 E162.31192
G0 F7800 X123.281 Y108.008
G1 F1080 X124.411 Y109.138 E162.37836
G0 F7800 X124.411 Y108.572
G1 F1080 X123.847 Y108.008 E162.41152
; Layer Change GCode
; LAYER:1
G1 F1800 E161.41152
G0 F7800 X123.847 Y108.008 Z0.45
G0 X125.153 Y107.6
G0 X125.753 Y107.486
G0 X126.953 Y107.486
G0 X131.8 Y104.8
G0 X133 Y104.8
G0 X133 Y106
G0 X133.6 Y106.6
G0 X134.428 Y119.389
G0 X134.144 Y119.726
G0 X133.931 Y120.112
G0 X133.797 Y120.533
G0 X133.749 Y120.973
G0 X133.786 Y121.411
G0 X133.909 Y121.835
G0 X134.113 Y122.227
G0 X134.389 Y122.571
G0 X134.726 Y122.855
G0 X135.112 Y123.068
G0 X135.532 Y123.202
G0 X135.934 Y123.247
G0 X135.978 Y122.849
G0 X135.934 Y123.247
G0 X135.532 Y123.202
G0 X134.101 Y122.852
; TYPE:WALL-INNER
G1 F1800 E162.41152
G1 X134.498 Y123.186 E162.42877
G1 X134.953 Y123.437 E162.44606
G1 X135.449 Y123.595 E162.46337
G1 X135.968 Y123.653 E162.48074
G1 X136.486 Y123.608 E162.49803
G1 X136.984 Y123.463 E162.51529
G1 X137.446 Y123.223 E162.5326
G1 X137.852 Y122.898 E162.5499
G1 X138.186 Y122.501 E162.56715
G1 X138.437 Y122.046 E162.58444
G1 X138.595 Y121.55 E162.60175
G1 X138.653 Y121.033 E162.61905
G0 F7800 X138.826 Y121.032
G1 F1800 X138.803 Y120.513 E162.65128
G0 F7800 X138.608 Y120.514
G1 F1800 X138.463 Y120.015 E162.66856
G1 X138.223 Y119.553 E162.68588
G1 X137.898 Y119.147 E162.70318
G1 X137.501 Y118.813 E162.72043
G1 X137.046 Y118.562 E162.73772
G1 X136.549 Y118.404 E162.75506
G1 X136.033 Y118.347 E162.77233
G1 X135.515 Y118.391 E162.78962
G1 X135.015 Y118.536 E162.80693
G1 X134.553 Y118.776 E162.82425
G1 X134.147 Y119.101 E162.84155
G0 F7800 X134.073 Y119.101
G1 F1800 X134 Y119.276 E162.84785
G0 F7800 X134 Y119.101
G1 F1800 X134 Y107 E163.25033
G1 X138.999 Y107 E163.4166
G1 X138.999 Y120.513 E163.86605
G0 F7800 X138.999 Y121.032
G1 F1800 X139 Y121.949 E163.89655
G1 X138.947 Y122.472 E163.91403
G1 X138.795 Y123.034 E163.93339
G1 X138.539 Y123.602 E163.95411
G1 X138.188 Y124.145 E163.97562
G1 X137.775 Y124.612 E163.99636
G1 X137.325 Y124.985 E164.0158
G1 X136.835 Y125.262 E164.03452
G1 X132.757 Y127.016 E164.18217
G1 X121 Y127.92 E164.57436
G1 X121 Y123.499 E164.7214
G1 X134 Y123.499 E165.15378
G1 X134 Y122.852 E165.1753
G0 F7800 X134.05 Y122.852
G1 F1800 X134 Y122.726 E165.17981
G0 F7800 X134.389 Y122.571
G1 F1800 X134.726 Y122.855 E165.19447
G1 X135.112 Y123.068 E165.20913
G1 X135.532 Y123.202 E165.2238
G1 X135.973 Y123.251 E165.23855
G1 X136.412 Y123.213 E165.25321
G1 X136.835 Y123.09 E165.26786
G1 X137.227 Y122.886 E165.28256
G1 X137.571 Y122.61 E165.29723
G1 X137.855 Y122.273 E165.31189
G1 X138.068 Y121.887 E165.32655
G1 X138.202 Y121.467 E165.34121
G1 X138.251 Y121.028 E165.3559
G1 X138.213 Y120.587 E165.37063
G1 X138.09 Y120.164 E165.38528
G1 X137.886 Y119.772 E165.39998
G1 X137.61 Y119.428 E165.41465
G1 X137.273 Y119.144 E165.4293
G1 X136.887 Y118.931 E165.44397
G1 X136.466 Y118.797 E165.45866
G1 X136.028 Y118.749 E165.47332
G1 X135.588 Y118.786 E165.488
G1 X135.164 Y118.909 E165.50269
G1 X134.772 Y119.113 E165.51738
G1 X134.428 Y119.389 E165.53205
G1 X134.144 Y119.726 E165.54671
G1 X133.931 Y120.112 E165.56137
G1 X133.797 Y120.533 E165.57607
G1 X133.749 Y120.973 E165.59079
G1 X133.786 Y121.411 E165.60541
G1 X133.909 Y121.835 E165.62009
G1 X134.113 Y122.227 E165.63479
G1 X134.389 Y122.571 E165.64946
G0 F7800 X134.726 Y122.855
G0 X135.112 Y123.068
G0 X135.532 Y123.202
G0 X135.934 Y123.247
G0 X135.978 Y122.849
; TYPE:WALL-OUTER
G1 F1260 X136.338 Y122.818 E165.66148
G1 X136.686 Y122.717 E165.67353
G1 X137.008 Y122.549 E165.68561
G1 X137.29 Y122.323 E165.69763
G1 X137.524 Y122.046 E165.70969
G1 X137.699 Y121.728 E165.72176
G1 X137.809 Y121.383 E165.73381
G1 X137.849 Y121.023 E165.74585
G1 X137.818 Y120.661 E165.75794
G1 X137.717 Y120.313 E165.76999
G1 X137.549 Y119.991 E165.78207
G1 X137.323 Y119.709 E165.79409
G1 X137.046 Y119.475 E165.80615
G1 X136.728 Y119.3 E165.81822
G1 X136.383 Y119.19 E165.83027
G1 X136.023 Y119.151 E165.84231
G1 X135.661 Y119.181 E165.85439
G1 X135.313 Y119.282 E165.86644
G1 X134.991 Y119.45 E165.87852
G1 X134.709 Y119.676 E165.89054
G1 X134.475 Y119.953 E165.9026
G1 X134.3 Y120.271 E165.91468
G1 X134.19 Y120.616 E165.92672
G1 X134.151 Y120.978 E165.93883
G1 X134.181 Y121.338 E165.95085
G1 X134.282 Y121.686 E165.9629
G1 X134.45 Y122.008 E165.97498
G1 X134.676 Y122.29 E165.987
G1 X134.953 Y122.524 E165.99906
G1 X135.271 Y122.699 E166.01113
G1 X135.616 Y122.809 E166.02317
G1 X135.978 Y122.849 E166.03529
G1 F1800 E165.03529
G0 F7800 X135.934 Y123.247
G0 X135.532 Y123.202
G0 X135.112 Y123.068
G0 X134.726 Y122.855
G0 X134.389 Y122.571
G0 X134.113 Y122.227
G0 X133.909 Y121.835
G0 X133.786 Y121.411
G0 X133.749 Y120.973
G0 X133.797 Y120.533
G0 X135.934 Y106.6
G0 X138.6 Y106.6
G0 X138.6 Y93.4
G0 X135.934 Y81.247
G0 X135.978 Y80.849
G0 X135.934 Y81.247
G0 X135.532 Y81.202
G0 X134.101 Y80.852
; TYPE:WALL-INNER
G1 F1800 E166.03529
G1 X134.498 Y81.186 E166.05254
G1 X134.953 Y81.437 E166.06983
G1 X135.449 Y81.595 E166.08714
G1 X135.968 Y81.653 E166.10451
G1 X136.486 Y81.608 E166.1218
G1 X136.984 Y81.463 E166.13906
G1 X137.446 Y81.223 E166.15637
G1 X137.852 Y80.898 E166.17367
G1 X138.186 Y80.501 E166.19092
G1 X138.437 Y80.046 E166.20821
G1 X138.595 Y79.55 E166.22552
G1 X138.653 Y79.033 E166.24282
G0 F7800 X138.824 Y79.032
G1 F1800 X138.802 Y78.513 E166.27492
G0 F7800 X138.996 Y78.513
G1 F1800 X138.996 Y78.015 E166.29148
G1 X138.932 Y77.451 E166.31036
G1 X138.769 Y76.897 E166.32957
G1 X138.498 Y76.325 E166.35062
G1 X138.14 Y75.793 E166.37195
G1 X137.718 Y75.333 E166.39271
G1 X137.261 Y74.97 E166.41212
G1 X136.804 Y74.719 E166.42946
G1 X132.758 Y72.985 E166.57587
G1 X121 Y72.08 E166.9681
G1 X121 Y76.5 E167.11511
G1 X134 Y76.5 E167.54749
G1 X134 Y77.101 E167.56748
G0 F7800 X134.073 Y77.101
G1 F1800 X134 Y77.276 E167.57379
G0 F7800 X134.147 Y77.101
G1 F1800 X134.553 Y76.776 E167.59108
G1 X135.015 Y76.536 E167.6084
G1 X135.515 Y76.391 E167.62572
G1 X136.033 Y76.347 E167.64301
G1 X136.549 Y76.404 E167.66027
G1 X137.046 Y76.562 E167.67762
G1 X137.501 Y76.813 E167.6949
G1 X137.898 Y77.147 E167.71216
G1 X138.223 Y77.553 E167.72946
G1 X138.463 Y78.015 E167.74677
G1 X138.608 Y78.514 E167.76405
G0 F7800 X138.996 Y79.032
G1 F1800 X138.997 Y93 E168.22863
G1 X134 Y93 E168.39483
G1 X134 Y80.852 E168.79888
G0 F7800 X134.05 Y80.852
G1 F1800 X134 Y80.726 E168.80339
G0 F7800 X134.389 Y80.571
G1 F1800 X134.726 Y80.855 E168.81804
G1 X135.112 Y81.068 E168.83271
G1 X135.532 Y81.202 E168.84737
G1 X135.973 Y81.251 E168.86213
G1 X136.412 Y81.213 E168.87678
G1 X136.835 Y81.09 E168.89144
G1 X137.227 Y80.886 E168.90613
G1 X137.571 Y80.61 E168.9208
G1 X137.855 Y80.273 E168.93546
G1 X138.068 Y79.887 E168.95012
G1 X138.202 Y79.467 E168.96479
G1 X138.251 Y79.028 E168.97948
G1 X138.213 Y78.587 E168.9942
G1 X138.09 Y78.164 E169.00885
G1 X137.886 Y77.772 E169.02355
G1 X137.61 Y77.428 E169.03822
G1 X137.273 Y77.144 E169.05288
G1 X136.887 Y76.931 E169.06754
G1 X136.466 Y76.797 E169.08224
G1 X136.028 Y76.749 E169.09689
G1 X135.588 Y76.786 E169.11158
G1 X135.164 Y76.909 E169.12626
G1 X134.772 Y77.113 E169.14096
G1 X134.428 Y77.389 E169.15563
G1 X134.144 Y77.726 E169.17028
G1 X133.931 Y78.112 E169.18495
G1 X133.797 Y78.533 E169.19964
G1 X133.749 Y78.973 E169.21436
G1 X133.786 Y79.411 E169.22898
G1 X133.909 Y79.835 E169.24367
G1 X134.113 Y80.227 E169.25837
G1 X134.389 Y80.571 E169.27303
G0 F7800 X134.726 Y80.855
G0 X135.112 Y81.068
G0 X135.532 Y81.202
G0 X135.934 Y81.247
G0 X135.978 Y80.849
; TYPE:WALL-OUTER
G1 F1260 X136.338 Y80.818 E169.28505
G1 X136.686 Y80.717 E169.2971
G1 X137.008 Y80.549 E169.30918
G1 X137.29 Y80.323 E169.3212
G1 X137.524 Y80.046 E169.33326
G1 X137.699 Y79.728 E169.34534
G1 X137.809 Y79.383 E169.35738
G1 X137.849 Y79.023 E169.36943
G1 X137.818 Y78.661 E169.38151
G1 X137.717 Y78.313 E169.39356
G1 X137.549 Y77.991 E169.40564
G1 X137.323 Y77.709 E169.41766
G1 X137.046 Y77.475 E169.42972
G1 X136.728 Y77.3 E169.4418
G1 X136.383 Y77.19 E169.45384
G1 X136.023 Y77.151 E169.46588
G1 X135.661 Y77.181 E169.47797
G1 X135.313 Y77.282 E169.49002
G1 X134.991 Y77.45 E169.5021
G1 X134.709 Y77.676 E169.51412
G1 X134.475 Y77.953 E169.52618
G1 X134.3 Y78.271 E169.53825
G1 X134.19 Y78.616 E169.55029
G1 X134.151 Y78.978 E169.5624
G1 X134.181 Y79.338 E169.57442
G1 X134.282 Y79.686 E169.58647
G1 X134.45 Y80.008 E169.59855
G1 X134.676 Y80.29 E169.61057
G1 X134.953 Y80.524 E169.62263
G1 X135.271 Y80.699 E169.6347
G1 X135.616 Y80.809 E169.64675
G1 X135.978 Y80.849 E169.65886
G1 F1800 E168.65886
G0 F7800 X135.934 Y81.247
G0 X133.6 Y81.039
G0 X133.6 Y76.9
G0 X79.4 Y76.6
G0 X79.4 Y76.2
G0 X79.8 Y76.2
G0 X79.4 Y76.2
G0 X79 Y76.5
; TYPE:WALL-INNER
G1 F1800 E169.65886
G1 X66 Y76.5 E170.09124
G1 X66 Y77.147 E170.11276
G0 F7800 X65.949 Y77.147
G1 F1800 X66 Y77.274 E170.11731
G0 F7800 X65.898 Y77.147
G1 F1800 X65.501 Y76.813 E170.13457
G1 X65.046 Y76.562 E170.15185
G1 X64.549 Y76.404 E170.1692
G1 X64.033 Y76.347 E170.18647
G1 X63.515 Y76.391 E170.20376
G1 X63.015 Y76.536 E170.22107
G1 X62.553 Y76.776 E170.23839
G1 X62.147 Y77.101 E170.25568
G1 X61.813 Y77.498 E170.27294
G1 X61.562 Y77.953 E170.29022
G1 X61.404 Y78.449 E170.30754
G1 X61.346 Y78.968 E170.32491
G0 F7800 X61.173 Y78.968
G1 F1800 X61.196 Y79.486 E170.35703
G0 F7800 X61.391 Y79.486
G1 F1800 X61.536 Y79.984 E170.37428
G1 X61.776 Y80.446 E170.39159
G1 X62.101 Y80.852 E170.40889
G1 X62.498 Y81.186 E170.42615
G1 X62.953 Y81.437 E170.44343
G1 X63.449 Y81.595 E170.46074
G1 X63.968 Y81.653 E170.47811
G1 X64.486 Y81.608 E170.49541
G1 X64.984 Y81.463 E170.51266
G1 X65.446 Y81.223 E170.52998
G1 X65.852 Y80.898 E170.54727
G0 F7800 X65.926 Y80.898
G1 F1800 X66 Y80.722 E170.55362
G0 F7800 X66 Y80.898
G1 F1800 X66 Y96.4 E171.06922
G1 X61.002 Y96.399 E171.23546
G1 X61.001 Y79.487 E171.79795
G0 F7800 X61.001 Y78.969
G1 F1800 X61 Y77.559 E171.84485
G1 X61.047 Y77.163 E171.85811
G1 X61.187 Y76.723 E171.87347
G1 X61.432 Y76.252 E171.89113
G1 X61.774 Y75.787 E171.91032
G1 X62.187 Y75.367 E171.92992
G1 X62.652 Y75.013 E171.94935
G1 X63.153 Y74.742 E171.9683
G1 X67.243 Y72.985 E172.11635
G1 X79 Y72.08 E172.50855
G1 X79 Y76.5 E172.65556
G0 F7800 X79.4 Y76.6
G1 F1800 X120.6 Y76.6 E174.02588
G1 X120.6 Y72.4 E174.16557
G1 X79.4 Y72.4 E175.53589
G1 X79.4 Y76.6 E175.67558
G0 F7800 X79.4 Y76.2
G0 X79.8 Y76.2
; TYPE:WALL-OUTER
G1 F1260 X120.2 Y76.2 E177.01929
G1 X120.2 Y72.8 E177.13237
G1 X79.8 Y72.8 E178.47608
G1 X79.8 Y76.2 E178.58917
G1 F1800 E177.58917
G0 F7800 X79.4 Y76.2
G0 X66.4 Y76.9
G0 X66.4 Y80.442
G0 X64.835 Y81.09
G0 X64.412 Y81.213
G0 X63.973 Y81.251
G0 X63.934 Y81.247
G0 X63.978 Y80.849
G0 X63.934 Y81.247
G0 X61.4 Y96.799
G0 X61.4 Y103.199
G0 X66 Y103.6
; TYPE:WALL-INNER
G1 F1800 E178.58917
G1 X66 Y119.147 E179.10626
G0 F7800 X65.949 Y119.147
G1 F1800 X66 Y119.274 E179.11082
G0 F7800 X65.898 Y119.147
G1 F1800 X65.501 Y118.813 E179.12807
G1 X65.046 Y118.562 E179.14535
G1 X64.549 Y118.404 E179.1627
G1 X64.033 Y118.347 E179.17997
G1 X63.515 Y118.391 E179.19726
G1 X63.015 Y118.536 E179.21457
G1 X62.553 Y118.776 E179.23189
G1 X62.147 Y119.101 E179.24919
G1 X61.813 Y119.498 E179.26644
G1 X61.562 Y119.953 E179.28372
G1 X61.404 Y120.449 E179.30104
G1 X61.346 Y120.968 E179.31841
G0 F7800 X61.175 Y120.968
G1 F1800 X61.197 Y121.486 E179.3504
G0 F7800 X61.004 Y121.487
G1 F1800 X61.004 Y121.984 E179.36693
G1 X61.067 Y122.548 E179.3858
G1 X61.23 Y123.102 E179.40501
G1 X61.5 Y123.673 E179.42602
G1 X61.858 Y124.205 E179.44734
G1 X62.282 Y124.667 E179.4682
G1 X62.738 Y125.03 E179.48759
G1 X63.195 Y125.281 E179.50493
G1 X67.242 Y127.016 E179.65138
G1 X79 Y127.92 E180.04361
G1 X79 Y123.499 E180.19065
G1 X66 Y123.499 E180.62303
G1 X66 Y122.898 E180.64302
G0 F7800 X65.926 Y122.898
G1 F1800 X66 Y122.722 E180.64937
G0 F7800 X65.852 Y122.898
G1 F1800 X65.446 Y123.223 E180.66667
G1 X64.984 Y123.463 E180.68398
G1 X64.486 Y123.608 E180.70124
G1 X63.968 Y123.653 E180.71853
G1 X63.449 Y123.595 E180.7359
G1 X62.953 Y123.437 E180.75321
G1 X62.498 Y123.186 E180.7705
G1 X62.101 Y122.852 E180.78775
G1 X61.776 Y122.446 E180.80505
G1 X61.536 Y121.984 E180.82236
G1 X61.391 Y121.486 E180.83962
G0 F7800 X61.004 Y120.969
G1 F1800 X61.002 Y103.599 E181.41734
G1 X66 Y103.6 E181.58358
G0 F7800 X66.4 Y103.2
G1 F1800 X66.4 Y123.099 E182.24542
G1 X133.6 Y123.099 E184.4805
G1 X133.6 Y106.6 E185.02926
G1 X138.6 Y106.6 E185.19556
G1 X138.6 Y93.4 E185.6346
G1 X133.6 Y93.4 E185.8009
G1 X133.6 Y76.9 E186.34969
G1 X66.4 Y76.9 E188.58477
G1 X66.4 Y96.8 E189.24665
G1 X61.4 Y96.799 E189.41295
G1 X61.4 Y103.199 E189.62581
G1 X66.4 Y103.2 E189.79211
G0 F7800 X66.699 Y102.8
; TYPE:WALL-OUTER
G1 F1260 X66.699 Y97.2 E189.97837
G1 X61.8 Y97.199 E190.14131
G1 X61.8 Y102.799 E190.32757
G1 X66.699 Y102.8 E190.49051
G1 F1800 E189.49051
G0 F7800 X66.4 Y103.2
G0 X66.4 Y122.699
G0 X66.8 Y122.699
G0 X66.4 Y122.699
G0 X65.855 Y122.273
; TYPE:WALL-INNER
G1 F1800 E190.49051
G1 X66.068 Y121.887 E190.50517
G1 X66.202 Y121.467 E190.51984
G1 X66.251 Y121.028 E190.53453
G1 X66.213 Y120.587 E190.54925
G1 X66.09 Y120.164 E190.5639
G1 X65.886 Y119.772 E190.5786
G1 X65.61 Y119.428 E190.59327
G1 X65.273 Y119.144 E190.60793
G1 X64.887 Y118.931 E190.62259
G1 X64.466 Y118.797 E190.63728
G1 X64.028 Y118.749 E190.65194
G1 X63.588 Y118.786 E190.66663
G1 X63.164 Y118.909 E190.68131
G1 X62.772 Y119.113 E190.69601
G1 X62.428 Y119.389 E190.71068
G1 X62.144 Y119.726 E190.72533
G1 X61.931 Y120.112 E190.74
G1 X61.797 Y120.532 E190.75466
G1 X61.748 Y120.973 E190.76942
G1 X61.786 Y121.412 E190.78407
G1 X61.909 Y121.835 E190.79873
G1 X62.113 Y122.227 E190.81342
G1 X62.389 Y122.571 E190.82809
G1 X62.726 Y122.855 E190.84275
G1 X63.112 Y123.068 E190.85741
G1 X63.532 Y123.202 E190.87208
G1 X63.973 Y123.251 E190.88684
G1 X64.412 Y123.213 E190.90149
G1 X64.835 Y123.09 E190.91614
G1 X65.227 Y122.886 E190.93084
G1 X65.571 Y122.61 E190.94551
G1 X65.855 Y122.273 E190.96017
G0 F7800 X65.571 Y122.61
G0 X65.227 Y122.886
G0 X64.835 Y123.09
G0 X64.412 Y123.213
G0 X63.973 Y123.251
G0 X63.934 Y123.247
G0 X63.978 Y122.849
; TYPE:WALL-OUTER
G1 F1260 X64.338 Y122.818 E190.97219
G1 X64.686 Y122.717 E190.98424
G1 X65.008 Y122.549 E190.99632
G1 X65.29 Y122.323 E191.00834
G1 X65.524 Y122.046 E191.0204
G1 X65.699 Y121.728 E191.03247
G1 X65.809 Y121.383 E191.04451
G1 X65.849 Y121.023 E191.05656
G1 X65.818 Y120.661 E191.06865
G1 X65.717 Y120.313 E191.0807
G1 X65.549 Y119.991 E191.09278
G1 X65.323 Y119.709 E191.1048
G1 X65.046 Y119.475 E191.11686
G1 X64.728 Y119.3 E191.12893
G1 X64.383 Y119.19 E191.14097
G1 X64.023 Y119.151 E191.15302
G1 X63.661 Y119.181 E191.1651
G1 X63.313 Y119.282 E191.17715
G1 X62.991 Y119.45 E191.18923
G1 X62.709 Y119.676 E191.20125
G1 X62.475 Y119.953 E191.21331
G1 X62.3 Y120.271 E191.22538
G1 X62.19 Y120.616 E191.23743
G1 X62.15 Y120.978 E191.24954
G1 X62.181 Y121.338 E191.26156
G1 X62.282 Y121.686 E191.27361
G1 X62.45 Y122.008 E191.28569
G1 X62.676 Y122.29 E191.29771
G1 X62.953 Y122.524 E191.30977
G1 X63.271 Y122.699 E191.32184
G1 X63.616 Y122.809 E191.33389
G1 X63.978 Y122.849 E191.346
G0 F7800 X63.934 Y123.247
G0 X63.973 Y123.251
G0 X64.412 Y123.213
G0 X66.4 Y122.699
G0 X66.8 Y122.699
G0 X66.4 Y122.699
G0 X66.4 Y123.099
G0 X67.144 Y127.41
; TYPE:WALL-INNER
G1 F1800 X63.027 Y125.645 E191.49499
G1 X62.515 Y125.363 E191.51443
G1 X62.009 Y124.961 E191.53592
G1 X61.544 Y124.455 E191.55878
G1 X61.151 Y123.87 E191.58222
G1 X60.857 Y123.251 E191.60501
G1 X60.672 Y122.621 E191.62685
G1 X60.604 Y122.013 E191.6472
G1 X60.6 Y77.537 E193.12648
G1 X60.654 Y77.078 E193.14185
G1 X60.817 Y76.566 E193.15972
G1 X61.092 Y76.038 E193.17952
G1 X61.466 Y75.528 E193.20055
G1 X61.926 Y75.062 E193.22233
G1 X62.431 Y74.678 E193.24343
G1 X62.978 Y74.381 E193.26414
G1 X67.145 Y72.591 E193.41498
G1 X80.02 Y71.6 E193.84447
G1 X119.98 Y71.6 E195.17354
G1 X132.856 Y72.591 E195.60307
G1 X136.972 Y74.355 E195.75201
G1 X137.484 Y74.637 E195.77145
G1 X137.99 Y75.039 E195.79294
G1 X138.455 Y75.545 E195.8158
G1 X138.848 Y76.129 E195.83921
G1 X139.142 Y76.748 E195.86201
G1 X139.327 Y77.378 E195.88384
G1 X139.396 Y77.988 E195.90426
G1 X139.4 Y121.97 E197.36711
G1 X139.342 Y122.544 E197.3863
G1 X139.172 Y123.17 E197.40787
G1 X138.892 Y123.793 E197.43059
G1 X138.509 Y124.385 E197.45404
G1 X138.052 Y124.902 E197.47699
G1 X137.549 Y125.319 E197.49872
G1 X137.016 Y125.62 E197.51908
G1 X132.854 Y127.41 E197.66977
G1 X119.98 Y128.4 E198.09923
G1 X80.02 Y128.4 E199.4283
G1 X67.144 Y127.41 E199.85782
G0 F7800 X80.02 Y128.4
G0 X80.002 Y128.8
; TYPE:WALL-OUTER
G1 F1260 X67.05 Y127.804 E200.28988
G1 X62.839 Y125.998 E200.44228
G1 X62.295 Y125.7 E200.46291
G1 X61.732 Y125.252 E200.48684
G1 X61.231 Y124.706 E200.51148
G1 X60.804 Y124.071 E200.53693
G1 X60.481 Y123.389 E200.56203
G1 X60.279 Y122.705 E200.58575
G1 X60.204 Y122.031 E200.60831
G1 X60.2 Y77.516 E202.08888
G1 X60.262 Y76.994 E202.10637
G1 X60.448 Y76.409 E202.12679
G1 X60.749 Y75.828 E202.14855
G1 X61.163 Y75.266 E202.17177
G1 X61.658 Y74.764 E202.19521
G1 X62.214 Y74.341 E202.21845
G1 X62.803 Y74.021 E202.24074
G1 X67.05 Y72.197 E202.39448
G1 X80.002 Y71.2 E202.82654
G1 X119.998 Y71.2 E204.15681
G1 X132.95 Y72.197 E204.58887
G1 X137.16 Y74.002 E204.74122
G1 X137.704 Y74.3 E204.76185
G1 X138.267 Y74.748 E204.78578
G1 X138.768 Y75.293 E204.8104
G1 X139.195 Y75.928 E204.83586
G1 X139.518 Y76.61 E204.86095
G1 X139.72 Y77.295 E204.88471
G1 X139.796 Y77.969 E204.90727
G1 X139.8 Y121.99 E206.37141
G1 X139.737 Y122.617 E206.39237
G1 X139.55 Y123.306 E206.41612
G1 X139.245 Y123.983 E206.44081
G1 X138.827 Y124.629 E206.4664
G1 X138.333 Y125.188 E206.49122
G1 X137.777 Y125.649 E206.51524
G1 X137.197 Y125.977 E206.5374
G1 X132.95 Y127.804 E206.69117
G1 X119.998 Y128.8 E207.12323
G1 X80.002 Y128.8 E208.4535
G0 F7800 X80.02 Y128.4
G0 X79.4 Y127.6
G0 X79.4 Y127.2
G0 X79.8 Y127.2
G0 X79.4 Y127.2
G0 X79.4 Y127.6
; TYPE:WALL-INNER
G1 F1800 X120.6 Y127.6 E209.82382
G1 X120.6 Y123.4 E209.96351
G1 X79.4 Y123.4 E211.33383
G1 X79.4 Y127.6 E211.47352
G0 F7800 X79.4 Y127.2
G0 X79.8 Y127.2
; TYPE:WALL-OUTER
G1 F1260 X120.2 Y127.2 E212.81723
G1 X120.2 Y123.8 E212.93032
G1 X79.8 Y123.8 E214.27403
G1 X79.8 Y127.2 E214.38711
G1 F1800 E213.38711
G0 F7800 X79.4 Y127.2
G0 X66.4 Y123.099
G0 X66.4 Y122.699
G0 X66.8 Y122.699
G0 X66.4 Y122.699
G0 X65.259 Y103.2
G0 X61.4 Y103.199
G0 X61.4 Y96.799
G0 X63.973 Y81.251
; TYPE:WALL-INNER
G1 F1800 E214.38711
G1 X64.412 Y81.213 E214.40177
G1 X64.835 Y81.09 E214.41642
G1 X65.227 Y80.886 E214.43111
G1 X65.571 Y80.61 E214.44578
G1 X65.855 Y80.273 E214.46044
G1 X66.068 Y79.887 E214.47511
G1 X66.202 Y79.467 E214.48977
G1 X66.251 Y79.028 E214.50446
G1 X66.213 Y78.587 E214.51918
G1 X66.09 Y78.164 E214.53383
G1 X65.886 Y77.772 E214.54853
G1 X65.61 Y77.428 E214.5632
G1 X65.273 Y77.144 E214.57786
G1 X64.887 Y76.931 E214.59252
G1 X64.466 Y76.797 E214.60722
G1 X64.028 Y76.749 E214.62187
G1 X63.588 Y76.786 E214.63656
G1 X63.164 Y76.909 E214.65124
G1 X62.772 Y77.113 E214.66594
G1 X62.428 Y77.389 E214.68061
G1 X62.144 Y77.726 E214.69527
G1 X61.931 Y78.112 E214.70993
G1 X61.797 Y78.532 E214.72459
G1 X61.748 Y78.973 E214.73935
G1 X61.786 Y79.412 E214.75401
G1 X61.909 Y79.835 E214.76866
G1 X62.113 Y80.227 E214.78336
G1 X62.389 Y80.571 E214.79803
G1 X62.726 Y80.855 E214.81268
G1 X63.112 Y81.068 E214.82735
G1 X63.532 Y81.202 E214.84201
G1 X63.973 Y81.251 E214.85677
G0 F7800 X63.934 Y81.247
G0 X63.978 Y80.849
; TYPE:WALL-OUTER
G1 F1260 X64.338 Y80.818 E214.86879
G1 X64.686 Y80.717 E214.88084
G1 X65.008 Y80.549 E214.89292
G1 X65.29 Y80.323 E214.90494
G1 X65.524 Y80.046 E214.917
G1 X65.699 Y79.728 E214.92907
G1 X65.809 Y79.383 E214.94111
G1 X65.849 Y79.023 E214.95316
G1 X65.818 Y78.661 E214.96525
G1 X65.717 Y78.313 E214.9773
G1 X65.549 Y77.991 E214.98938
G1 X65.323 Y77.709 E215.0014
G1 X65.046 Y77.475 E215.01346
G1 X64.728 Y77.3 E215.02553
G1 X64.383 Y77.19 E215.03757
G1 X64.023 Y77.151 E215.04962
G1 X63.661 Y77.181 E215.0617
G1 X63.313 Y77.282 E215.07375
G1 X62.991 Y77.45 E215.08583
G1 X62.709 Y77.676 E215.09785
G1 X62.475 Y77.953 E215.10991
G1 X62.3 Y78.271 E215.12198
G1 X62.19 Y78.616 E215.13403
G1 X62.15 Y78.978 E215.14614
G1 X62.181 Y79.338 E215.15816
G1 X62.282 Y79.686 E215.17021
G1 X62.45 Y80.008 E215.18229
G1 X62.676 Y80.29 E215.19431
G1 X62.953 Y80.524 E215.20637
G1 X63.271 Y80.699 E215.21844
G1 X63.616 Y80.809 E215.23049
G1 X63.978 Y80.849 E215.2426
G1 F1800 E214.2426
G0 F7800 X63.934 Y81.247
G0 X61.4 Y96.799
G0 X61.4 Y103.199
G0 X65.239 Y103.199
G0 X66.4 Y122.699
G0 X66.8 Y122.699
G1 F1800 E215.2426
G1 F1260 X133.2 Y122.699 E217.45107
G1 X133.2 Y106.2 E217.99983
G1 X138.2 Y106.2 E218.16613
G1 X138.2 Y93.8 E218.57856
G1 X133.2 Y93.8 E218.74486
G1 X133.2 Y77.3 E219.29365
G1 X66.8 Y77.3 E221.50213
G1 X66.8 Y122.699 E223.0121
G0 F7800 X66.4 Y122.699
G0 X66.4 Y123.099
G0 X66.797 Y123.838
; TYPE:FILL
G1 F3600 X64.966 Y125.669 E223.09823
G0 F7800 X65.362 Y125.838
G1 F3600 X67.363 Y123.838 E223.19232
G0 F7800 X67.928 Y123.838
G1 F3600 X65.758 Y126.008 E223.29439
G0 F7800 X66.154 Y126.178
G1 F3600 X68.494 Y123.838 E223.40446
G0 F7800 X69.06 Y123.838
G1 F3600 X66.55 Y126.348 E223.52252
G0 F7800 X66.946 Y126.518
G1 F3600 X69.625 Y123.838 E223.64856
G0 F7800 X70.191 Y123.838
G1 F3600 X67.347 Y126.682 E223.78233
G0 F7800 X67.873 Y126.722
G1 F3600 X70.757 Y123.838 E223.91799
G0 F7800 X71.323 Y123.838
G1 F3600 X68.398 Y126.763 E224.05557
G0 F7800 X68.923 Y126.803
G1 F3600 X71.888 Y123.838 E224.19503
G0 F7800 X72.454 Y123.838
G1 F3600 X69.449 Y126.843 E224.33638
G0 F7800 X69.974 Y126.883
G1 F3600 X73.02 Y123.838 E224.47963
G0 F7800 X73.585 Y123.838
G1 F3600 X70.499 Y126.924 E224.62479
G0 F7800 X71.024 Y126.965
G1 F3600 X74.151 Y123.838 E224.77187
G0 F7800 X74.717 Y123.838
G1 F3600 X71.55 Y127.005 E224.92084
G0 F7800 X72.075 Y127.045
G1 F3600 X75.282 Y123.838 E225.07168
G0 F7800 X75.848 Y123.838
G1 F3600 X72.6 Y127.086 E225.22446
G0 F7800 X73.126 Y127.126
G1 F3600 X76.414 Y123.838 E225.37912
G0 F7800 X76.979 Y123.838
G1 F3600 X73.651 Y127.166 E225.53566
G0 F7800 X74.176 Y127.207
G1 F3600 X77.545 Y123.838 E225.69412
G0 F7800 X78.111 Y123.838
G1 F3600 X74.702 Y127.247 E225.85447
G0 F7800 X75.226 Y127.288
G1 F3600 X78.659 Y123.855 E226.01595
G0 F7800 X78.659 Y124.421
G1 F3600 X75.752 Y127.328 E226.15269
G0 F7800 X76.277 Y127.369
G1 F3600 X78.659 Y124.986 E226.26475
G0 F7800 X78.659 Y125.552
G1 F3600 X76.803 Y127.409 E226.35208
G0 F7800 X77.328 Y127.449
G1 F3600 X78.659 Y126.118 E226.41468
G0 F7800 X78.659 Y126.683
G1 F3600 X77.853 Y127.489 E226.4526
G0 F7800 X78.379 Y127.53
G1 F3600 X78.659 Y127.249 E226.46579
G0 F7800 X79.187 Y127.967
G1 F3600 X80.035 Y128 E226.48936
G1 X119.965 Y128 E227.81743
G1 X120.812 Y127.966 E227.84091
G0 F7800 X121.35 Y127.551
G1 F3600 X125.063 Y123.838 E228.01555
G0 F7800 X125.628 Y123.838
G1 F3600 X121.963 Y127.504 E228.18797
G0 F7800 X122.575 Y127.457
G1 F3600 X126.194 Y123.838 E228.3582
G0 F7800 X126.76 Y123.838
G1 F3600 X123.188 Y127.41 E228.52621
G0 F7800 X123.801 Y127.362
G1 F3600 X127.325 Y123.838 E228.69197
G0 F7800 X127.89 Y123.839
G1 F3600 X124.414 Y127.315 E228.85547
G0 F7800 X125.027 Y127.268
G1 F3600 X128.456 Y123.839 E229.01676
G0 F7800 X129.022 Y123.839
G1 F3600 X125.639 Y127.221 E229.17586
G0 F7800 X126.252 Y127.174
G1 F3600 X129.587 Y123.839 E229.33273
G0 F7800 X130.153 Y123.839
G1 F3600 X126.865 Y127.127 E229.48739
G0 F7800 X127.477 Y127.08
G1 F3600 X130.719 Y123.839 E229.63986
G0 F7800 X131.284 Y123.839
G1 F3600 X128.09 Y127.033 E229.79009
G0 F7800 X128.703 Y126.986
G1 F3600 X131.85 Y123.839 E229.93812
G0 F7800 X132.416 Y123.839
G1 F3600 X129.316 Y126.939 E230.08393
G0 F7800 X129.928 Y126.892
G1 F3600 X132.982 Y123.839 E230.22756
G0 F7800 X133.547 Y123.839
G1 F3600 X130.541 Y126.845 E230.36895
G0 F7800 X131.154 Y126.797
G1 F3600 X134.113 Y123.839 E230.50811
G0 F7800 X134.339 Y123.612
G1 F3600 X134.356 Y123.528 E230.51193
G1 X134.246 Y123.274 E230.52082
G1 X134.294 Y123.353 E230.52227
G0 F7800 X134.785 Y123.733
G1 F3600 X131.767 Y126.751 E230.66423
G0 F7800 X132.38 Y126.703
G1 F3600 X135.208 Y123.875 E230.79725
G0 F7800 X135.686 Y123.962
G1 F3600 X133.189 Y126.46 E230.91472
G0 F7800 X134.181 Y126.033
G1 F3600 X136.245 Y123.969 E231.01181
G0 F7800 X136.955 Y123.825
G1 F3600 X135.174 Y125.606 E231.09558
G0 F7800 X136.166 Y125.179
G1 F3600 X138.49 Y122.856 E231.20487
G0 F7800 X138.515 Y122.659
G1 F3600 X138.635 Y122.373 E231.21163
G1 X138.701 Y122.133 E231.2149
G0 F7800 X138.711 Y122.031
G1 F3600 X138.728 Y121.889 E231.22437
G1 X138.65 Y122.225 E231.23177
G0 F7800 X138.534 Y119.417
G1 F3600 X138.475 Y119.193 E231.23761
G1 X138.658 Y118.728 E231.25423
G0 F7800 X138.658 Y118.162
G1 F3600 X138.018 Y118.803 E231.28436
G0 F7800 X137.71 Y118.545
G1 F3600 X138.658 Y117.596 E231.32897
G0 F7800 X138.658 Y117.031
G1 F3600 X137.348 Y118.341 E231.39059
G0 F7800 X136.949 Y118.174
G1 F3600 X138.658 Y116.465 E231.47098
G0 F7800 X138.658 Y115.899
G1 F3600 X136.501 Y118.057 E231.57246
G0 F7800 X135.982 Y118.009
G1 F3600 X138.658 Y115.334 E231.69831
G0 F7800 X138.658 Y114.768
G1 F3600 X135.338 Y118.088 E231.85447
G0 F7800 X134.338 Y117.956
G1 F3600 X138.658 Y113.637 E232.05764
G0 F7800 X138.658 Y114.202
G1 F3600 X134.377 Y118.484 E232.25903
G0 F7800 X134.338 Y117.391
G1 F3600 X138.657 Y113.072 E232.46219
G0 F7800 X138.657 Y112.506
G1 F3600 X134.338 Y116.825 E232.66534
G0 F7800 X134.338 Y116.259
G1 F3600 X138.657 Y111.94 E232.86849
G0 F7800 X138.657 Y111.374
G1 F3600 X134.338 Y115.693 E233.07164
G0 F7800 X134.338 Y115.128
G1 F3600 X138.657 Y110.809 E233.2748
G0 F7800 X138.657 Y110.243
G1 F3600 X134.338 Y114.562 E233.47795
G0 F7800 X134.338 Y113.996
G1 F3600 X138.657 Y109.677 E233.6811
G0 F7800 X138.657 Y109.112
G1 F3600 X134.338 Y113.431 E233.88425
G0 F7800 X134.338 Y112.865
G1 F3600 X138.657 Y108.546 E234.08741
G0 F7800 X138.657 Y107.98
G1 F3600 X134.338 Y112.299 E234.29056
G0 F7800 X134.338 Y111.734
G1 F3600 X138.657 Y107.415 E234.49371
G0 F7800 X138.167 Y107.34
G1 F3600 X134.338 Y111.168 E234.67379
G0 F7800 X134.338 Y110.602
G1 F3600 X137.601 Y107.34 E234.82725
G0 F7800 X137.035 Y107.34
G1 F3600 X134.338 Y110.037 E234.95411
G0 F7800 X134.338 Y109.471
G1 F3600 X136.47 Y107.34 E235.05437
G0 F7800 X135.904 Y107.34
G1 F3600 X134.338 Y108.905 E235.128
G0 F7800 X134.338 Y108.34
G1 F3600 X135.338 Y107.34 E235.17504
G0 F7800 X134.773 Y107.34
G1 F3600 X134.338 Y107.774 E235.19548
G0 F7800 X138.999 Y106.799
G1 F3600 X138.998 Y93.199 E235.64442
G0 F7800 X138.139 Y92.659
G1 F3600 X138.655 Y92.143 E235.66869
G0 F7800 X138.655 Y91.578
G1 F3600 X137.573 Y92.659 E235.71956
G0 F7800 X137.008 Y92.659
G1 F3600 X138.655 Y91.012 E235.79703
G0 F7800 X138.655 Y90.446
G1 F3600 X136.442 Y92.659 E235.90113
G0 F7800 X135.876 Y92.659
G1 F3600 X138.655 Y89.881 E236.03182
G0 F7800 X138.655 Y89.315
G1 F3600 X135.311 Y92.659 E236.18911
G0 F7800 X134.745 Y92.659
G1 F3600 X138.655 Y88.749 E236.37303
G0 F7800 X138.655 Y88.183
G1 F3600 X134.339 Y92.5 E236.57606
G0 F7800 X134.339 Y91.934
G1 F3600 X138.655 Y87.618 E236.77907
G0 F7800 X138.655 Y87.052
G1 F3600 X134.339 Y91.368 E236.98208
G0 F7800 X134.339 Y90.803
G1 F3600 X138.655 Y86.487 E237.18509
G0 F7800 X138.655 Y85.921
G1 F3600 X134.339 Y90.237 E237.38811
G0 F7800 X134.339 Y89.671
G1 F3600 X138.655 Y85.356 E237.59109
G0 F7800 X138.655 Y84.79
G1 F3600 X134.339 Y89.106 E237.79411
G0 F7800 X134.339 Y88.54
G1 F3600 X138.655 Y84.224 E237.99712
G0 F7800 X138.655 Y83.659
G1 F3600 X134.339 Y87.974 E238.2001
G0 F7800 X134.339 Y87.409
G1 F3600 X138.655 Y83.093 E238.40312
G0 F7800 X138.655 Y82.527
G1 F3600 X134.338 Y86.844 E238.60617
G0 F7800 X134.338 Y86.278
G1 F3600 X138.655 Y81.962 E238.80921
G0 F7800 X138.655 Y81.396
G1 F3600 X134.338 Y85.712 E239.01224
G0 F7800 X134.338 Y85.146
G1 F3600 X138.655 Y80.83 E239.21528
G0 F7800 X137.171 Y81.748
G1 F3600 X134.338 Y84.581 E239.34853
G0 F7800 X134.338 Y84.015
G1 F3600 X136.397 Y81.957 E239.44536
G0 F7800 X135.811 Y81.977
G1 F3600 X134.338 Y83.449 E239.51462
G0 F7800 X134.338 Y82.884
G1 F3600 X135.314 Y81.909 E239.56051
G0 F7800 X134.884 Y81.772
G1 F3600 X134.338 Y82.318 E239.58619
G0 F7800 X134.338 Y81.752
G1 F3600 X134.51 Y81.581 E239.59426
G0 F7800 X133.909 Y79.835
G0 X133.786 Y79.411
G0 X133.749 Y78.973
G0 X133.797 Y78.533
G0 X134.2 Y76.705
G1 F3600 X134.321 Y76.454 E239.59877
G0 F7800 X134.275 Y76.159
G1 F3600 X135.782 Y74.652 E239.66966
G0 F7800 X136.178 Y74.821
G1 F3600 X134.667 Y76.333 E239.74075
G0 F7800 X135.517 Y76.049
G1 F3600 X136.574 Y74.991 E239.7905
G0 F7800 X136.946 Y75.185
G1 F3600 X136.116 Y76.015 E239.82954
G0 F7800 X136.625 Y76.071
G1 F3600 X137.279 Y75.418 E239.86028
G0 F7800 X137.578 Y75.684
G1 F3600 X137.054 Y76.208 E239.88492
G0 F7800 X137.438 Y76.39
G1 F3600 X137.964 Y76.147 E239.90419
G1 X137.939 Y76.738 E239.91806
G1 X138.374 Y76.868 E239.92713
G1 X138.353 Y77.172 E239.93726
G0 F7800 X138.543 Y77.398
G1 F3600 X138.611 Y77.561 E239.93926
G1 X138.717 Y77.932 E239.94304
G1 X138.739 Y78.036 E239.94409
G0 F7800 X135.386 Y74.482
G1 F3600 X133.709 Y76.159 E240.02297
G0 F7800 X133.143 Y76.159
G1 F3600 X134.99 Y74.312 E240.10984
G0 F7800 X134.594 Y74.142
G1 F3600 X132.578 Y76.159 E240.20469
G0 F7800 X132.012 Y76.159
G1 F3600 X134.198 Y73.973 E240.30752
G0 F7800 X133.802 Y73.803
G1 F3600 X131.446 Y76.159 E240.41834
G0 F7800 X130.881 Y76.159
G1 F3600 X133.407 Y73.633 E240.53715
G0 F7800 X133.011 Y73.464
G1 F3600 X130.315 Y76.159 E240.66394
G0 F7800 X129.749 Y76.159
G1 F3600 X132.595 Y73.313 E240.79781
G0 F7800 X132.07 Y73.273
G1 F3600 X129.184 Y76.159 E240.93356
G0 F7800 X128.618 Y76.159
G1 F3600 X131.545 Y73.232 E241.07123
G0 F7800 X131.019 Y73.192
G1 F3600 X128.052 Y76.159 E241.21079
G0 F7800 X127.487 Y76.159
G1 F3600 X130.494 Y73.152 E241.35223
G0 F7800 X129.969 Y73.112
G1 F3600 X126.921 Y76.159 E241.49558
G0 F7800 X126.355 Y76.159
G1 F3600 X129.444 Y73.071 E241.64085
G0 F7800 X128.919 Y73.03
G1 F3600 X125.79 Y76.159 E241.78803
G0 F7800 X125.224 Y76.159
G1 F3600 X128.393 Y72.99 E241.93709
G0 F7800 X127.868 Y72.95
G1 F3600 X124.658 Y76.159 E242.08805
G0 F7800 X124.092 Y76.159
G1 F3600 X127.342 Y72.909 E242.24092
G0 F7800 X126.818 Y72.868
G1 F3600 X123.527 Y76.159 E242.39572
G0 F7800 X122.961 Y76.159
G1 F3600 X126.292 Y72.828 E242.5524
G0 F7800 X125.767 Y72.788
G1 F3600 X122.395 Y76.159 E242.71099
G0 F7800 X121.83 Y76.159
G1 F3600 X125.242 Y72.747 E242.87148
G0 F7800 X124.716 Y72.707
G1 F3600 X121.339 Y76.084 E243.03032
G0 F7800 X121.339 Y75.519
G1 F3600 X124.191 Y72.667 E243.16447
G0 F7800 X123.666 Y72.626
G1 F3600 X121.339 Y74.953 E243.27393
G0 F7800 X121.339 Y74.387
G1 F3600 X123.141 Y72.585 E243.35869
G0 F7800 X122.615 Y72.545
G1 F3600 X121.339 Y73.821 E243.4187
G0 F7800 X121.339 Y73.256
G1 F3600 X122.09 Y72.505 E243.45403
G0 F7800 X121.565 Y72.465
G1 F3600 X121.339 Y72.69 E243.46464
G0 F7800 X120.812 Y72.033
G1 F3600 X119.965 Y72 E243.48818
G1 X80.035 Y72 E244.81625
G1 X79.186 Y72.033 E244.83985
G0 F7800 X78.585 Y72.452
G1 F3600 X74.878 Y76.159 E245.01422
G0 F7800 X75.443 Y76.16
G1 F3600 X78.659 Y72.944 E245.16549
G0 F7800 X78.659 Y73.51
G1 F3600 X76.009 Y76.16 E245.29014
G0 F7800 X76.574 Y76.16
G1 F3600 X78.659 Y74.075 E245.38821
G0 F7800 X78.659 Y74.641
G1 F3600 X77.14 Y76.16 E245.45966
G0 F7800 X77.706 Y76.16
G1 F3600 X78.659 Y75.207 E245.50448
G0 F7800 X78.659 Y75.772
G1 F3600 X78.271 Y76.16 E245.52273
G0 F7800 X77.972 Y72.499
G1 F3600 X74.312 Y76.159 E245.69489
G0 F7800 X73.746 Y76.159
G1 F3600 X77.36 Y72.546 E245.86486
G0 F7800 X76.747 Y72.593
G1 F3600 X73.181 Y76.159 E246.03259
G0 F7800 X72.615 Y76.159
G1 F3600 X76.134 Y72.641 E246.19809
G0 F7800 X75.521 Y72.688
G1 F3600 X72.049 Y76.159 E246.36138
G0 F7800 X71.484 Y76.159
G1 F3600 X74.908 Y72.735 E246.52243
G0 F7800 X74.295 Y72.782
G1 F3600 X70.918 Y76.159 E246.68128
G0 F7800 X70.352 Y76.159
G1 F3600 X73.682 Y72.829 E246.83791
G0 F7800 X73.069 Y72.877
G1 F3600 X69.787 Y76.159 E246.99228
G0 F7800 X69.221 Y76.159
G1 F3600 X72.457 Y72.923 E247.1445
G0 F7800 X71.844 Y72.971
G1 F3600 X68.656 Y76.158 E247.29443
G0 F7800 X68.09 Y76.158
G1 F3600 X71.231 Y73.018 E247.44215
G0 F7800 X70.618 Y73.065
G1 F3600 X67.525 Y76.158 E247.58763
G0 F7800 X66.959 Y76.158
G1 F3600 X70.005 Y73.112 E247.73091
G0 F7800 X69.392 Y73.16
G1 F3600 X66.393 Y76.158 E247.87195
G0 F7800 X65.828 Y76.158
G1 F3600 X68.779 Y73.207 E248.01075
G0 F7800 X68.167 Y73.254
G1 F3600 X65.176 Y76.245 E248.15144
G0 F7800 X65.54 Y76.446
G1 F3600 X65.683 Y76.4 E248.15703
G1 X65.753 Y76.725 E248.16594
G1 X65.705 Y76.646 E248.16739
G0 F7800 X64.746 Y76.108
G1 F3600 X67.554 Y73.301 E248.29945
G0 F7800 X66.703 Y73.586
G1 F3600 X64.259 Y76.03 E248.4144
G0 F7800 X63.689 Y76.034
G1 F3600 X65.711 Y74.012 E248.50951
G0 F7800 X64.72 Y74.438
G1 F3600 X62.961 Y76.197 E248.59225
G0 F7800 X63.727 Y74.864
G1 F3600 X61.391 Y77.201 E248.70215
G0 F7800 X61.331 Y77.645
G1 F3600 X61.288 Y77.874 E248.70558
G0 F7800 X61.443 Y80.543
G1 F3600 X61.51 Y80.758 E248.71039
G1 X61.34 Y81.212 E248.72652
G0 F7800 X61.34 Y81.778
G1 F3600 X61.949 Y81.168 E248.75519
G0 F7800 X62.257 Y81.426
G1 F3600 X61.34 Y82.343 E248.79832
G0 F7800 X61.34 Y82.909
G1 F3600 X62.612 Y81.636 E248.85817
G0 F7800 X63.005 Y81.81
G1 F3600 X61.34 Y83.474 E248.93647
G0 F7800 X61.34 Y84.04
G1 F3600 X63.445 Y81.935 E249.03548
G0 F7800 X63.954 Y81.991
G1 F3600 X61.34 Y84.606 E249.15846
G0 F7800 X61.34 Y85.171
G1 F3600 X64.577 Y81.934 E249.31072
G0 F7800 X65.5 Y81.577
G1 F3600 X61.34 Y85.737 E249.50639
G0 F7800 X61.34 Y86.303
G1 F3600 X65.659 Y81.984 E249.70954
G0 F7800 X65.659 Y82.549
G1 F3600 X61.34 Y86.868 E249.91269
G0 F7800 X61.34 Y87.434
G1 F3600 X65.659 Y83.115 E250.11585
G0 F7800 X65.659 Y83.681
G1 F3600 X61.34 Y88 E250.319
G0 F7800 X61.341 Y88.565
G1 F3600 X65.659 Y84.246 E250.52213
G0 F7800 X65.659 Y84.812
G1 F3600 X61.341 Y89.13 E250.72523
G0 F7800 X61.341 Y89.696
G1 F3600 X65.659 Y85.378 E250.92834
G0 F7800 X65.659 Y85.943
G1 F3600 X61.341 Y90.262 E251.13147
G0 F7800 X61.341 Y90.827
G1 F3600 X65.659 Y86.509 E251.33457
G0 F7800 X65.659 Y87.075
G1 F3600 X61.341 Y91.393 E251.53768
G0 F7800 X61.341 Y91.959
G1 F3600 X65.659 Y87.64 E251.74081
G0 F7800 X65.659 Y88.206
G1 F3600 X61.341 Y92.524 E251.94391
G0 F7800 X61.341 Y93.09
G1 F3600 X65.659 Y88.772 E252.14702
G0 F7800 X65.659 Y89.337
G1 F3600 X61.342 Y93.655 E252.3501
G0 F7800 X61.342 Y94.221
G1 F3600 X65.659 Y89.903 E252.55318
G0 F7800 X65.659 Y90.469
G1 F3600 X61.342 Y94.786 E252.75624
G0 F7800 X61.342 Y95.352
G1 F3600 X65.659 Y91.035 E252.9593
G0 F7800 X65.659 Y91.6
G1 F3600 X61.342 Y95.918 E253.16238
G0 F7800 X61.767 Y96.058
G1 F3600 X65.659 Y92.166 E253.34545
G0 F7800 X65.659 Y92.732
G1 F3600 X62.333 Y96.058 E253.5019
G0 F7800 X62.898 Y96.059
G1 F3600 X65.659 Y93.297 E253.63179
G0 F7800 X65.659 Y93.863
G1 F3600 X63.464 Y96.059 E253.73506
G0 F7800 X64.029 Y96.059
G1 F3600 X65.659 Y94.429 E253.81173
G0 F7800 X65.659 Y94.994
G1 F3600 X64.594 Y96.059 E253.86182
G0 F7800 X65.16 Y96.059
G1 F3600 X65.659 Y95.56 E253.88529
G0 F7800 X61.001 Y96.599
G1 F3600 X61.001 Y103.399 E254.10977
G0 F7800 X61.807 Y103.938
G1 F3600 X61.342 Y104.403 E254.13164
G0 F7800 X61.342 Y104.969
G1 F3600 X62.373 Y103.938 E254.18013
G0 F7800 X62.938 Y103.939
G1 F3600 X61.342 Y105.534 E254.25518
G0 F7800 X61.342 Y106.1
G1 F3600 X63.503 Y103.939 E254.35683
G0 F7800 X64.069 Y103.939
G1 F3600 X61.342 Y106.665 E254.48507
G0 F7800 X61.342 Y107.231
G1 F3600 X64.634 Y103.939 E254.63992
G0 F7800 X65.2 Y103.939
G1 F3600 X61.342 Y107.797 E254.82139
G0 F7800 X61.342 Y108.362
G1 F3600 X65.659 Y104.045 E255.02445
G0 F7800 X65.659 Y104.611
G1 F3600 X61.342 Y108.928 E255.2275
G0 F7800 X61.342 Y109.494
G1 F3600 X65.659 Y105.177 E255.43056
G0 F7800 X65.659 Y105.742
G1 F3600 X61.342 Y110.059 E255.63362
G0 F7800 X61.342 Y110.625
G1 F3600 X65.659 Y106.308 E255.83668
G0 F7800 X65.659 Y106.874
G1 F3600 X61.342 Y111.191 E256.03974
G0 F7800 X61.343 Y111.756
G1 F3600 X65.659 Y107.439 E256.24277
G0 F7800 X65.659 Y108.005
G1 F3600 X61.343 Y112.321 E256.44578
G0 F7800 X61.343 Y112.887
G1 F3600 X65.659 Y108.571 E256.6488
G0 F7800 X65.659 Y109.136
G1 F3600 X61.343 Y113.453 E256.85183
G0 F7800 X61.343 Y114.018
G1 F3600 X65.659 Y109.702 E257.05484
G0 F7800 X65.659 Y110.268
G1 F3600 X61.343 Y114.584 E257.25785
G0 F7800 X61.343 Y115.15
G1 F3600 X65.659 Y110.834 E257.46087
G0 F7800 X65.659 Y111.399
G1 F3600 X61.343 Y115.715 E257.66388
G0 F7800 X61.343 Y116.281
G1 F3600 X65.659 Y111.965 E257.86689
G0 F7800 X65.659 Y112.531
G1 F3600 X61.343 Y116.847 E258.0699
G0 F7800 X61.344 Y117.412
G1 F3600 X65.659 Y113.096 E258.27289
G0 F7800 X65.659 Y113.662
G1 F3600 X61.344 Y117.977 E258.47585
G0 F7800 X61.344 Y118.543
G1 F3600 X65.659 Y114.228 E258.67882
G0 F7800 X65.659 Y114.793
G1 F3600 X61.344 Y119.109 E258.8818
G0 F7800 X62.706 Y118.312
G1 F3600 X65.659 Y115.359 E259.0207
G0 F7800 X65.659 Y115.925
G1 F3600 X63.537 Y118.047 E259.12052
G0 F7800 X64.134 Y118.016
G1 F3600 X65.659 Y116.49 E259.19227
G0 F7800 X65.659 Y117.056
G1 F3600 X64.64 Y118.076 E259.24023
G0 F7800 X65.07 Y118.211
G1 F3600 X65.659 Y117.622 E259.26793
G0 F7800 X65.659 Y118.187
G1 F3600 X65.451 Y118.396 E259.27774
G0 F7800 X66.09 Y120.164
G0 X66.213 Y120.587
G0 X66.251 Y121.028
G0 X66.202 Y121.467
G0 X65.8 Y123.293
G1 F3600 X65.678 Y123.545 E259.28228
G0 F7800 X65.666 Y123.838
G1 F3600 X64.174 Y125.329 E259.35243
G0 F7800 X63.778 Y125.16
G1 F3600 X65.211 Y123.727 E259.41984
G0 F7800 X64.418 Y123.954
G1 F3600 X63.382 Y124.99 E259.46857
G0 F7800 X63.015 Y124.792
G1 F3600 X63.829 Y123.978 E259.50685
G0 F7800 X63.328 Y123.913
G1 F3600 X62.687 Y124.554 E259.53701
G0 F7800 X62.392 Y124.283
G1 F3600 X62.899 Y123.776 E259.56085
G0 F7800 X62.523 Y123.586
G1 F3600 X62.008 Y123.818 E259.57973
G1 X62.027 Y123.234 E259.59314
G1 X61.608 Y123.087 E259.60156
G1 X61.619 Y122.794 E259.61131
G0 F7800 X61.456 Y122.601
G1 F3600 X61.389 Y122.443 E259.61534
G1 X61.283 Y122.067 E259.61969
G1 X61.26 Y121.958 E259.62077
G0 F7800 X61.277 Y122.016
G1 F3600 X61.26 Y121.749 E259.6245
G0 F7800 X64.57 Y125.499
G1 F3600 X66.231 Y123.838 E259.70263
G1 F1800 E258.70263
G0 F7800 X79.4 Y123.4
G0 X120.6 Y123.4
G0 X121.339 Y124.167
G1 F1800 E259.70263
G1 F3600 X121.669 Y123.838 E259.71813
G0 F7800 X122.234 Y123.838
G1 F3600 X121.339 Y124.733 E259.76023
G0 F7800 X121.339 Y125.299
G1 F3600 X122.8 Y123.838 E259.82895
G0 F7800 X123.366 Y123.838
G1 F3600 X121.339 Y125.865 E259.92429
G0 F7800 X121.339 Y126.43
G1 F3600 X123.931 Y123.838 E260.04621
G0 F7800 X124.497 Y123.838
G1 F3600 X121.339 Y126.996 E260.19475
G1 F1800 E259.19475
G0 F7800 X120.6 Y123.4
G0 X66.4 Y123.099
G0 X66.4 Y103.2
G0 X61.4 Y103.199
G0 X61.4 Y96.799
G0 X66.4 Y96.8
G0 X66.4 Y76.9
G0 X79.4 Y76
G0 X80 Y76
G0 X81.2 Y74.8
G0 X118.8 Y74.8
G0 X131.8 Y78.7
G0 X86.333 Y86.55
G0 X87.034 Y88.342
G0 X87.034 Y91.611
G0 X86.115 Y93.45
G0 X85.373 Y93.45
G0 X85.373 Y92.25
G0 X85.002 Y91.65
G0 X75.68 Y91.65
G0 X75.28 Y92.05
G0 X75.68 Y91.65
G0 X76.08 Y91.25
; TYPE:WALL-INNER
G1 F1800 E260.19475
G1 X76.08 Y88.75 E260.27791
G1 X84.832 Y88.75 E260.569
G1 X84.834 Y91.093 E260.64693
G1 X84.756 Y91.25 E260.65276
G1 X76.08 Y91.25 E260.94132
G0 F7800 X75.68 Y91.65
G1 F1800 X75.68 Y88.35 E261.05108
G1 X85.104 Y88.35 E261.36452
G1 X85.234 Y88.682 E261.37638
G1 X85.234 Y91.186 E261.45967
G1 X85.002 Y91.65 E261.47692
G1 X75.68 Y91.65 E261.78697
G0 F7800 X75.28 Y92.05
; TYPE:WALL-OUTER
G1 F1260 X75.28 Y87.95 E261.92334
G1 X85.378 Y87.95 E262.2592
G1 X85.634 Y88.605 E262.28259
G1 X85.634 Y91.281 E262.37159
G1 X85.25 Y92.05 E262.40018
G1 X75.28 Y92.05 E262.73179
G0 F7800 X75.68 Y91.65
G0 X76.533 Y90.909
; TYPE:FILL
G1 F3600 X78.353 Y89.089 E262.81739
G0 F7800 X78.918 Y89.089
G1 F3600 X77.099 Y90.909 E262.90298
G0 F7800 X77.665 Y90.909
G1 F3600 X79.484 Y89.089 E262.98856
G0 F7800 X80.05 Y89.089
G1 F3600 X78.23 Y90.909 E263.07417
G0 F7800 X78.796 Y90.909
G1 F3600 X80.615 Y89.089 E263.15975
G0 F7800 X81.181 Y89.089
G1 F3600 X79.362 Y90.909 E263.24533
G0 F7800 X79.927 Y90.909
G1 F3600 X81.747 Y89.089 E263.33094
G0 F7800 X82.312 Y89.089
G1 F3600 X80.493 Y90.909 E263.41653
G0 F7800 X81.059 Y90.909
G1 F3600 X82.878 Y89.089 E263.50211
G0 F7800 X83.444 Y89.089
G1 F3600 X81.624 Y90.909 E263.58772
G0 F7800 X82.19 Y90.909
G1 F3600 X84.009 Y89.089 E263.6733
G0 F7800 X84.492 Y89.173
G1 F3600 X82.756 Y90.909 E263.75496
G0 F7800 X83.321 Y90.909
G1 F3600 X84.492 Y89.738 E263.81004
G0 F7800 X84.493 Y90.303
G1 F3600 X83.887 Y90.909 E263.83854
G0 F7800 X84.453 Y90.909
G1 F3600 X84.494 Y90.868 E263.84047
G0 F7800 X77.787 Y89.089
G1 F3600 X76.42 Y90.456 E263.90477
G0 F7800 X76.419 Y89.891
G1 F3600 X77.221 Y89.089 E263.94249
G0 F7800 X76.656 Y89.089
G1 F3600 X76.419 Y89.325 E263.95362
G1 F1800 E262.95362
G0 F7800 X75.68 Y91.65
G0 X75.08 Y92.25
G0 X73.88 Y92.25
G0 X73.88 Y93.45
G0 X73.88 Y105.468
G0 X73.88 Y106.668
G0 X75.08 Y106.668
G0 X75.68 Y107.268
G0 X75.68 Y110.568
G0 X75.28 Y110.968
G0 X75.68 Y110.568
G0 X76.08 Y110.168
; TYPE:WALL-INNER
G1 F1800 E263.95362
G1 X76.08 Y107.668 E264.03677
G1 X84.832 Y107.668 E264.32786
G1 X84.834 Y110.011 E264.40579
G1 X84.755 Y110.168 E264.41163
G1 X76.08 Y110.168 E264.70017
G0 F7800 X75.68 Y110.568
G1 F1800 X75.68 Y107.268 E264.80992
G1 X85.104 Y107.268 E265.12337
G1 X85.234 Y107.6 E265.13523
G1 X85.234 Y110.104 E265.21851
G1 X85.002 Y110.568 E265.23576
G1 X75.68 Y110.568 E265.54582
G0 F7800 X75.28 Y110.968
; TYPE:WALL-OUTER
G1 F1260 X75.28 Y106.868 E265.68218
G1 X85.378 Y106.868 E266.01804
G1 X85.634 Y107.523 E266.04143
G1 X85.634 Y110.199 E266.13044
G1 X85.249 Y110.968 E266.15904
G1 X75.28 Y110.968 E266.49061
G0 F7800 X75.68 Y110.568
G0 X76.419 Y109.69
; TYPE:FILL
G1 F3600 X78.102 Y108.007 E266.56977
G0 F7800 X77.537 Y108.007
G1 F3600 X76.419 Y109.124 E266.62234
G0 F7800 X76.419 Y108.559
G1 F3600 X76.971 Y108.007 E266.6483
G0 F7800 X78.668 Y108.007
G1 F3600 X76.848 Y109.827 E266.73391
G0 F7800 X77.414 Y109.827
G1 F3600 X79.234 Y108.007 E266.81952
G0 F7800 X79.799 Y108.007
G1 F3600 X77.979 Y109.827 E266.90512
G0 F7800 X78.545 Y109.827
G1 F3600 X80.365 Y108.007 E266.99073
G0 F7800 X80.931 Y108.007
G1 F3600 X79.111 Y109.827 E267.07634
G0 F7800 X79.676 Y109.827
G1 F3600 X81.496 Y108.007 E267.16195
G0 F7800 X82.062 Y108.007
G1 F3600 X80.242 Y109.827 E267.24755
G0 F7800 X80.808 Y109.827
G1 F3600 X82.628 Y108.007 E267.33316
G0 F7800 X83.193 Y108.007
G1 F3600 X81.374 Y109.827 E267.41874
G0 F7800 X81.94 Y109.827
G1 F3600 X83.759 Y108.007 E267.50433
G0 F7800 X84.325 Y108.007
G1 F3600 X82.505 Y109.827 E267.58993
G0 F7800 X83.071 Y109.827
G1 F3600 X84.492 Y108.405 E267.6568
G0 F7800 X84.493 Y108.97
G1 F3600 X83.637 Y109.827 E267.69708
G0 F7800 X84.202 Y109.827
G1 F3600 X84.494 Y109.535 E267.71082
G1 F1800 E266.71082
G0 F7800 X85.234 Y110.104
G0 X85.834 Y110.247
G0 X86.907 Y110.784
G0 X93.249 Y111.168
G0 X94.449 Y111.168
G0 X94.649 Y110.968
G0 X95.049 Y110.568
G0 X95.449 Y110.168
; TYPE:WALL-INNER
G1 F1800 E267.71082
G1 X95.449 Y107.668 E267.79397
G1 X104.2 Y107.668 E268.08503
G1 X104.203 Y110.011 E268.16296
G1 X104.124 Y110.168 E268.1688
G1 X95.449 Y110.168 E268.45733
G0 F7800 X95.049 Y110.568
G1 F1800 X95.049 Y107.268 E268.56709
G1 X104.473 Y107.268 E268.88054
G1 X104.603 Y107.601 E268.89243
G1 X104.603 Y110.104 E268.97568
G1 X104.371 Y110.568 E268.99293
G1 X95.049 Y110.568 E269.30298
G0 F7800 X94.649 Y110.968
; TYPE:WALL-OUTER
G1 F1260 X94.649 Y106.868 E269.43935
G1 X104.746 Y106.868 E269.77518
G1 X105.003 Y107.523 E269.79858
G1 X105.003 Y110.199 E269.88758
G1 X104.618 Y110.968 E269.91619
G1 X94.649 Y110.968 E270.24776
G0 F7800 X95.049 Y110.568
G0 X95.788 Y109.554
; TYPE:FILL
G1 F3600 X97.336 Y108.007 E270.32055
G0 F7800 X97.901 Y108.007
G1 F3600 X96.081 Y109.827 E270.40615
G0 F7800 X96.647 Y109.827
G1 F3600 X98.467 Y108.007 E270.49176
G0 F7800 X99.033 Y108.007
G1 F3600 X97.213 Y109.827 E270.57737
G0 F7800 X97.778 Y109.827
G1 F3600 X99.598 Y108.007 E270.66297
G0 F7800 X100.164 Y108.007
G1 F3600 X98.344 Y109.827 E270.74858
G0 F7800 X98.91 Y109.827
G1 F3600 X100.73 Y108.007 E270.83419
G0 F7800 X101.295 Y108.007
G1 F3600 X99.475 Y109.827 E270.9198
G0 F7800 X100.042 Y109.827
G1 F3600 X101.861 Y108.007 E271.00538
G0 F7800 X102.427 Y108.007
G1 F3600 X100.607 Y109.827 E271.09099
G0 F7800 X101.173 Y109.827
G1 F3600 X102.992 Y108.007 E271.17657
G0 F7800 X103.558 Y108.007
G1 F3600 X101.739 Y109.827 E271.26215
G0 F7800 X102.304 Y109.827
G1 F3600 X103.861 Y108.27 E271.33539
G0 F7800 X103.861 Y108.835
G1 F3600 X102.87 Y109.827 E271.38203
G0 F7800 X103.436 Y109.827
G1 F3600 X103.862 Y109.4 E271.40209
G0 F7800 X96.77 Y108.007
G1 F3600 X95.788 Y108.989 E271.44828
G0 F7800 X95.788 Y108.423
G1 F3600 X96.204 Y108.007 E271.46785
G1 F1800 E270.46785
G0 F7800 X95.049 Y107.268
G0 X94.449 Y106.668
G0 X93.249 Y106.668
G0 X93.249 Y105.468
G0 X93.249 Y93.45
G0 X93.249 Y92.25
G0 X94.449 Y92.25
G0 X94.649 Y92.05
G0 X95.049 Y91.65
G0 X95.449 Y91.25
; TYPE:WALL-INNER
G1 F1800 E271.46785
G1 X95.449 Y88.75 E271.551
G1 X104.2 Y88.75 E271.84206
G1 X104.203 Y91.093 E271.91999
G1 X104.125 Y91.25 E271.92582
G1 X95.449 Y91.25 E272.21438
G0 F7800 X95.049 Y91.65
G1 F1800 X95.049 Y88.35 E272.32414
G1 X104.473 Y88.35 E272.63758
G1 X104.603 Y88.683 E272.64947
G1 X104.603 Y91.186 E272.73272
G1 X104.371 Y91.65 E272.74998
G1 X95.049 Y91.65 E273.06003
G0 F7800 X94.649 Y92.05
; TYPE:WALL-OUTER
G1 F1260 X94.649 Y87.95 E273.19639
G1 X104.746 Y87.95 E273.53222
G1 X105.003 Y88.605 E273.55562
G1 X105.003 Y91.281 E273.64463
G1 X104.619 Y92.05 E273.67322
G1 X94.649 Y92.05 E274.00482
G0 F7800 X95.049 Y91.65
G0 X95.788 Y90.887
; TYPE:FILL
G1 F3600 X97.585 Y89.09 E274.08935
G0 F7800 X97.02 Y89.09
G1 F3600 X95.788 Y90.322 E274.1473
G0 F7800 X95.788 Y89.756
G1 F3600 X96.454 Y89.09 E274.17862
G0 F7800 X95.888 Y89.09
G1 F3600 X95.788 Y89.19 E274.18333
G0 F7800 X96.331 Y90.91
G1 F3600 X98.151 Y89.09 E274.26893
G0 F7800 X98.717 Y89.09
G1 F3600 X96.896 Y90.91 E274.35456
G0 F7800 X97.462 Y90.91
G1 F3600 X99.282 Y89.09 E274.44017
G0 F7800 X99.849 Y89.089
G1 F3600 X98.028 Y90.91 E274.52583
G0 F7800 X98.594 Y90.91
G1 F3600 X100.414 Y89.089 E274.61146
G0 F7800 X100.98 Y89.089
G1 F3600 X99.159 Y90.91 E274.69711
G0 F7800 X99.725 Y90.91
G1 F3600 X101.546 Y89.089 E274.78276
G0 F7800 X102.111 Y89.089
G1 F3600 X100.291 Y90.909 E274.86837
G0 F7800 X100.857 Y90.909
G1 F3600 X102.677 Y89.089 E274.95398
G0 F7800 X103.243 Y89.089
G1 F3600 X101.423 Y90.909 E275.03959
G0 F7800 X101.988 Y90.909
G1 F3600 X103.808 Y89.089 E275.12519
G0 F7800 X103.86 Y89.603
G1 F3600 X102.554 Y90.909 E275.18662
G0 F7800 X103.12 Y90.909
G1 F3600 X103.861 Y90.168 E275.22148
G0 F7800 X103.862 Y90.733
G1 F3600 X103.685 Y90.909 E275.22978
G1 F1800 E274.22978
G0 F7800 X104.603 Y91.186
G0 X105.203 Y91.328
G0 X106.276 Y91.864
G0 X113.8 Y92.25
G0 X115 Y92.25
G0 X115.2 Y92.05
G0 X115.6 Y91.65
G0 X116 Y91.25
; TYPE:WALL-INNER
G1 F1800 E275.22978
G1 X116 Y88.75 E275.31293
G1 X124.751 Y88.75 E275.60399
G1 X124.753 Y91.092 E275.68189
G1 X124.674 Y91.25 E275.68776
G1 X116 Y91.25 E275.97626
G0 F7800 X115.6 Y91.65
G1 F1800 X115.6 Y88.35 E276.08602
G1 X125.023 Y88.35 E276.39943
G1 X125.153 Y88.682 E276.41129
G1 X125.153 Y91.186 E276.49457
G1 X124.922 Y91.65 E276.51181
G1 X115.6 Y91.65 E276.82186
G0 F7800 X115.2 Y92.05
; TYPE:WALL-OUTER
G1 F1260 X115.2 Y87.95 E276.95823
G1 X125.297 Y87.95 E277.29405
G1 X125.553 Y88.605 E277.31744
G1 X125.553 Y91.281 E277.40645
G1 X125.169 Y92.05 E277.43504
G1 X115.2 Y92.05 E277.76661
G0 F7800 X115.6 Y91.65
G0 X116.338 Y90.702
; TYPE:FILL
G1 F3600 X117.951 Y89.089 E277.84248
G0 F7800 X118.516 Y89.089
G1 F3600 X116.696 Y90.909 E277.92809
G0 F7800 X117.262 Y90.909
G1 F3600 X119.082 Y89.089 E278.01369
G0 F7800 X119.648 Y89.089
G1 F3600 X117.828 Y90.909 E278.0993
G0 F7800 X118.393 Y90.909
G1 F3600 X120.213 Y89.089 E278.18491
G0 F7800 X120.778 Y89.09
G1 F3600 X118.959 Y90.909 E278.27047
G0 F7800 X119.525 Y90.909
G1 F3600 X121.344 Y89.09 E278.35603
G0 F7800 X121.91 Y89.09
G1 F3600 X120.09 Y90.909 E278.44161
G0 F7800 X120.656 Y90.909
G1 F3600 X122.475 Y89.09 E278.52717
G0 F7800 X123.041 Y89.09
G1 F3600 X121.222 Y90.909 E278.61273
G0 F7800 X121.787 Y90.909
G1 F3600 X123.607 Y89.09 E278.69832
G0 F7800 X124.172 Y89.09
G1 F3600 X122.353 Y90.909 E278.78388
G0 F7800 X122.919 Y90.909
G1 F3600 X124.411 Y89.417 E278.85405
G0 F7800 X124.411 Y89.983
G1 F3600 X123.484 Y90.909 E278.89763
G0 F7800 X124.05 Y90.909
G1 F3600 X124.411 Y90.548 E278.91461
G0 F7800 X117.385 Y89.089
G1 F3600 X116.338 Y90.136 E278.96386
G0 F7800 X116.338 Y89.57
G1 F3600 X116.819 Y89.089 E278.98649
G1 F1800 E277.98649
G0 F7800 X115.6 Y91.65
G0 X115 Y92.25
G0 X113.8 Y92.25
G0 X113.8 Y93.45
G0 X113.8 Y105.468
G0 X113.8 Y106.668
G0 X115 Y106.668
G0 X115.6 Y107.268
G0 X115.6 Y110.568
G0 X115.2 Y110.968
G0 X115.6 Y110.568
G0 X116 Y110.168
; TYPE:WALL-INNER
G1 F1800 E278.98649
G1 X116 Y107.668 E279.06964
G1 X124.751 Y107.668 E279.3607
G1 X124.753 Y110.01 E279.43859
G1 X124.674 Y110.168 E279.44447
G1 X116 Y110.168 E279.73297
G0 F7800 X115.6 Y110.568
G1 F1800 X115.6 Y107.268 E279.84272
G1 X125.023 Y107.268 E280.15613
G1 X125.153 Y107.6 E280.16799
G1 X125.153 Y110.105 E280.25131
G1 X124.922 Y110.568 E280.26852
G1 X115.6 Y110.568 E280.57857
G0 F7800 X115.2 Y110.968
; TYPE:WALL-OUTER
G1 F1260 X115.2 Y106.868 E280.71494
G1 X125.297 Y106.868 E281.05076
G1 X125.553 Y107.523 E281.07415
G1 X125.553 Y110.2 E281.16319
G1 X125.169 Y110.968 E281.19175
G1 X115.2 Y110.968 E281.52332
G0 F7800 X115.6 Y110.568
G0 X116.446 Y109.827
; TYPE:FILL
G1 F3600 X118.266 Y108.007 E281.60893
G0 F7800 X118.832 Y108.007
G1 F3600 X117.012 Y109.827 E281.69454
G0 F7800 X117.577 Y109.827
G1 F3600 X119.397 Y108.007 E281.78014
G0 F7800 X119.963 Y108.007
G1 F3600 X118.143 Y109.827 E281.86575
G0 F7800 X118.709 Y109.827
G1 F3600 X120.528 Y108.008 E281.95131
G0 F7800 X121.094 Y108.008
G1 F3600 X119.274 Y109.827 E282.03689
G0 F7800 X119.84 Y109.827
G1 F3600 X121.659 Y108.008 E282.12245
G0 F7800 X122.225 Y108.008
G1 F3600 X120.406 Y109.827 E282.20801
G0 F7800 X120.971 Y109.827
G1 F3600 X122.791 Y108.008 E282.2936
G0 F7800 X123.356 Y108.008
G1 F3600 X121.537 Y109.827 E282.37916
G0 F7800 X122.103 Y109.827
G1 F3600 X123.922 Y108.008 E282.46472
G0 F7800 X124.41 Y108.086
